; HEADER_BLOCK_START
; generated by OrcaSlicer 2.0.0 on 2024-11-19 at 01:08:04
; total layer number: 247
; filament_density: 1.27
; filament_diameter: 1.75
; max_z_height: 49.40
; HEADER_BLOCK_END

; THUMBNAIL_BLOCK_START

;
; THUMBNAIL_BLOCK_END

; external perimeters extrusion width = 0.42mm
; perimeters extrusion width = 0.45mm
; infill extrusion width = 0.45mm
; solid infill extrusion width = 0.42mm
; top infill extrusion width = 0.42mm
; first layer extrusion width = 0.50mm

; EXECUTABLE_BLOCK_START
M73 P0 R240
M106 S0
M106 P2 S0
;TYPE:Custom
M190 S75
M104 S250
G90
M83
G1 Z5 F6000
G1 E-1.5 F800
G1 X110 Y-110 F6000
G1 E2 F800
G1 Y-110 X55 Z0.25 F4800
G1 X-55 E8 F2400
G1 Y-109.6 F2400
G1 X55 E5 F2400
G1 Y-110 X55 Z0.45 F4800
G1 X-55 E8 F2400
G1 Y-109.6 F2400
G1 X55 E5 F2400
G92 E0
G90
G21
M83 ; use relative distances for extrusion
; filament start gcode
SET_PRESSURE_ADVANCE ADVANCE=0.036; Override pressure advance value
M106 S0
M106 P2 S0
;LAYER_CHANGE
;Z:0.2
;HEIGHT:0.2
;BEFORE_LAYER_CHANGE
;0.2
G1 E-.8 F2100
;AFTER_LAYER_CHANGE
;0.2
;_SET_FAN_SPEED_CHANGING_LAYER
SET_VELOCITY_LIMIT ACCEL=500
G1 X87.783 Y0 F30000
G1 Z.4
G1 Z.2
G1 E.8 F2100
;TYPE:Skirt
;WIDTH:0.5
G1 F3000
G1 X87.783 Y95.477 E3.51989
G1 X87.39 Y96.939 E.0558
G1 X86.317 Y98.007 E.0558
G1 X84.869 Y98.392 E.05523
G1 X-84.869 Y98.392 E6.25757
G1 X-86.331 Y97.998 E.0558
G1 X-87.398 Y96.925 E.0558
G1 X-87.783 Y95.477 E.05523
G1 X-87.783 Y-95.477 E7.03977
G1 X-87.39 Y-96.939 E.0558
G1 X-86.317 Y-98.007 E.0558
G1 X-84.869 Y-98.392 E.05523
G1 X84.869 Y-98.392 E6.25757
G1 X86.331 Y-97.999 E.0558
G1 X87.398 Y-96.925 E.0558
G1 X87.783 Y-95.477 E.05523
G1 X87.783 Y-.04 E3.51841
M73 P0 R239
G1 X87.326 Y-.04 F30000
G1 F3000
G1 X87.326 Y95.477 E3.52136
G1 X86.934 Y96.809 E.05116
G1 X85.883 Y97.715 E.05116
G1 X84.869 Y97.935 E.03827
G1 X-84.869 Y97.935 E6.25757
G1 X-86.2 Y97.543 E.05116
G1 X-87.107 Y96.492 E.05116
G1 X-87.326 Y95.477 E.03827
G1 X-87.326 Y-95.477 E7.03977
G1 X-86.934 Y-96.809 E.05116
G1 X-85.883 Y-97.715 E.05116
G1 X-84.869 Y-97.935 E.03827
G1 X84.869 Y-97.935 E6.25757
G1 X86.2 Y-97.543 E.05116
G1 X87.107 Y-96.492 E.05116
G1 X87.326 Y-95.477 E.03827
G1 X87.326 Y-.08 E3.51694
G1 E-.8 F2100
;WIPE_START
G1 F3000
G1 X87.326 Y1.92
;WIPE_END
G1 X87.053 Y9.548 Z.6 F30000
G1 X84.012 Y94.62 Z.6
G1 Z.2
G1 E.8 F2100
;TYPE:Inner wall
G1 F3000
G1 X-84.012 Y94.62 E6.19438
G1 X-84.012 Y-94.62 E6.97658
G1 X84.012 Y-94.62 E6.19438
G1 X84.012 Y94.58 E6.9751
G1 X84.469 Y95.077 F30000
;TYPE:Outer wall
G1 F3000
G1 X-84.469 Y95.077 E6.22808
G1 X-84.469 Y-95.077 E7.01028
G1 X84.469 Y-95.077 E6.22808
G1 X84.469 Y95.037 E7.0088
G1 E-.8 F2100
;WIPE_START
G1 F3000
G1 X82.469 Y95.038
;WIPE_END
G1 X82.524 Y87.406 Z.6 F30000
G1 X83.829 Y-93.512 Z.6
G1 Z.2
G1 E.8 F2100
;TYPE:Bottom surface
;WIDTH:0.500581
G1 F4800
G1 X83.109 Y-94.232 E.03756
G1 X82.462 Y-94.232 E.02389
G1 X83.623 Y-93.071 E.06061
G1 X83.623 Y-92.424 E.02389
G1 X81.815 Y-94.232 E.0944
G1 X81.168 Y-94.232 E.02389
G1 X83.623 Y-91.776 E.12819
G1 X83.623 Y-91.129 E.02389
G1 X80.521 Y-94.232 E.16197
G1 X79.873 Y-94.232 E.02389
G1 X83.623 Y-90.482 E.19576
G1 X83.623 Y-89.835 E.02389
G1 X79.226 Y-94.232 E.22955
G1 X78.579 Y-94.232 E.02389
G1 X83.623 Y-89.187 E.26333
G1 X83.623 Y-88.54 E.02389
G1 X77.932 Y-94.232 E.29712
G1 X77.284 Y-94.232 E.02389
G1 X83.623 Y-87.893 E.33091
G1 X83.623 Y-87.246 E.02389
G1 X76.637 Y-94.232 E.3647
G1 X75.99 Y-94.232 E.02389
G1 X83.623 Y-86.599 E.39848
G1 X83.623 Y-85.951 E.02389
G1 X75.343 Y-94.232 E.43227
G1 X74.695 Y-94.232 E.02389
G1 X83.623 Y-85.304 E.46606
G1 X83.623 Y-84.657 E.02389
G1 X74.048 Y-94.232 E.49985
G1 X73.401 Y-94.232 E.02389
G1 X83.623 Y-84.01 E.53363
G1 X83.623 Y-83.362 E.02389
G1 X72.754 Y-94.232 E.56742
G1 X72.107 Y-94.232 E.02389
G1 X83.623 Y-82.715 E.60121
G1 X83.623 Y-82.068 E.02389
G1 X71.459 Y-94.232 E.635
G1 X70.812 Y-94.232 E.02389
G1 X83.623 Y-81.421 E.66878
G1 X83.623 Y-80.773 E.02389
G1 X70.165 Y-94.232 E.70257
G1 X69.518 Y-94.232 E.02389
G1 X83.623 Y-80.126 E.73636
G1 X83.623 Y-79.479 E.02389
G1 X68.87 Y-94.232 E.77014
G1 X68.223 Y-94.232 E.02389
G1 X83.623 Y-78.832 E.80393
G1 X83.623 Y-78.185 E.02389
G1 X67.576 Y-94.232 E.83772
G1 X66.929 Y-94.232 E.02389
G1 X83.623 Y-77.537 E.87151
G1 X83.623 Y-76.89 E.02389
G1 X66.281 Y-94.232 E.90529
G1 X65.634 Y-94.232 E.02389
G1 X83.623 Y-76.243 E.93908
G1 X83.623 Y-75.596 E.02389
G1 X64.987 Y-94.232 E.97287
G1 X64.34 Y-94.232 E.02389
G1 X83.623 Y-74.948 E1.00666
G1 X83.623 Y-74.301 E.02389
G1 X63.693 Y-94.232 E1.04044
G1 X63.045 Y-94.232 E.02389
G1 X83.623 Y-73.654 E1.07423
G1 X83.623 Y-73.007 E.02389
G1 X62.398 Y-94.232 E1.10802
G1 X61.751 Y-94.232 E.02389
G1 X83.623 Y-72.359 E1.1418
M73 P0 R238
G1 X83.623 Y-71.712 E.02389
G1 X61.104 Y-94.232 E1.17559
G1 X60.456 Y-94.232 E.02389
G1 X83.623 Y-71.065 E1.20938
G1 X83.623 Y-70.418 E.02389
G1 X59.809 Y-94.232 E1.24317
G1 X59.162 Y-94.232 E.02389
G1 X83.623 Y-69.771 E1.27695
G1 X83.623 Y-69.123 E.02389
G1 X58.515 Y-94.232 E1.31074
G1 X57.867 Y-94.232 E.02389
G1 X83.623 Y-68.476 E1.34453
G1 X83.623 Y-67.829 E.02389
G1 X57.22 Y-94.232 E1.37832
G1 X56.573 Y-94.232 E.02389
G1 X83.623 Y-67.182 E1.4121
G1 X83.623 Y-66.534 E.02389
G1 X55.926 Y-94.232 E1.44589
G1 X55.279 Y-94.232 E.02389
G1 X83.623 Y-65.887 E1.47968
G1 X83.623 Y-65.24 E.02389
G1 X54.631 Y-94.232 E1.51347
G1 X53.984 Y-94.232 E.02389
G1 X83.623 Y-64.593 E1.54725
G1 X83.623 Y-63.945 E.02389
G1 X53.337 Y-94.232 E1.58104
G1 X52.69 Y-94.232 E.02389
G1 X83.623 Y-63.298 E1.61483
G1 X83.623 Y-62.651 E.02389
G1 X52.042 Y-94.232 E1.64861
G1 X51.395 Y-94.232 E.02389
G1 X83.623 Y-62.004 E1.6824
G1 X83.623 Y-61.357 E.02389
G1 X50.748 Y-94.232 E1.71619
G1 X50.101 Y-94.232 E.02389
G1 X83.623 Y-60.709 E1.74998
G1 X83.623 Y-60.062 E.02389
G1 X49.453 Y-94.232 E1.78376
G1 X48.806 Y-94.232 E.02389
G1 X83.623 Y-59.415 E1.81755
G1 X83.623 Y-58.768 E.02389
G1 X48.159 Y-94.232 E1.85134
G1 X47.512 Y-94.232 E.02389
G1 X83.623 Y-58.12 E1.88513
G1 X83.623 Y-57.473 E.02389
G1 X46.865 Y-94.232 E1.91891
G1 X46.217 Y-94.232 E.02389
G1 X83.623 Y-56.826 E1.9527
G1 X83.623 Y-56.179 E.02389
G1 X45.57 Y-94.232 E1.98649
G1 X44.923 Y-94.232 E.02389
G1 X83.623 Y-55.531 E2.02027
G1 X83.623 Y-54.884 E.02389
G1 X44.276 Y-94.232 E2.05406
G1 X43.628 Y-94.232 E.02389
G1 X83.623 Y-54.237 E2.08785
G1 X83.623 Y-53.59 E.02389
G1 X42.981 Y-94.232 E2.12164
G1 X42.334 Y-94.232 E.02389
G1 X83.623 Y-52.943 E2.15542
G1 X83.623 Y-52.295 E.02389
G1 X41.687 Y-94.232 E2.18921
G1 X41.039 Y-94.232 E.02389
G1 X83.623 Y-51.648 E2.223
G1 X83.623 Y-51.001 E.02389
G1 X40.392 Y-94.232 E2.25679
G1 X39.745 Y-94.232 E.02389
G1 X83.623 Y-50.354 E2.29057
G1 X83.623 Y-49.706 E.02389
G1 X39.098 Y-94.232 E2.32436
G1 X38.451 Y-94.232 E.02389
G1 X83.623 Y-49.059 E2.35815
G1 X83.623 Y-48.412 E.02389
G1 X37.803 Y-94.232 E2.39194
G1 X37.156 Y-94.232 E.02389
G1 X83.623 Y-47.765 E2.42572
G1 X83.623 Y-47.117 E.02389
G1 X36.509 Y-94.232 E2.45951
G1 X35.862 Y-94.232 E.02389
G1 X83.623 Y-46.47 E2.4933
G1 X83.623 Y-45.823 E.02389
G1 X35.214 Y-94.232 E2.52708
G1 X34.567 Y-94.232 E.02389
G1 X83.623 Y-45.176 E2.56087
G1 X83.623 Y-44.529 E.02389
G1 X33.92 Y-94.232 E2.59466
G1 X33.273 Y-94.232 E.02389
G1 X83.623 Y-43.881 E2.62845
G1 X83.623 Y-43.234 E.02389
G1 X32.625 Y-94.232 E2.66223
G1 X31.978 Y-94.232 E.02389
G1 X83.623 Y-42.587 E2.69602
G1 X83.623 Y-41.94 E.02389
G1 X31.331 Y-94.232 E2.72981
G1 X30.684 Y-94.232 E.02389
G1 X83.623 Y-41.292 E2.7636
G1 X83.623 Y-40.645 E.02389
G1 X30.037 Y-94.232 E2.79738
G1 X29.389 Y-94.232 E.02389
G1 X83.623 Y-39.998 E2.83117
G1 X83.623 Y-39.351 E.02389
G1 X28.742 Y-94.232 E2.86496
G1 X28.095 Y-94.232 E.02389
G1 X83.623 Y-38.703 E2.89874
G1 X83.623 Y-38.056 E.02389
G1 X27.448 Y-94.232 E2.93253
G1 X26.8 Y-94.232 E.02389
G1 X83.623 Y-37.409 E2.96632
G1 X83.623 Y-36.762 E.02389
G1 X26.153 Y-94.232 E3.00011
G1 X25.506 Y-94.232 E.02389
G1 X83.623 Y-36.115 E3.03389
G1 X83.623 Y-35.467 E.02389
G1 X24.859 Y-94.232 E3.06768
G1 X24.211 Y-94.232 E.02389
G1 X83.623 Y-34.82 E3.10147
G1 X83.623 Y-34.173 E.02389
G1 X23.564 Y-94.232 E3.13526
G1 X22.917 Y-94.232 E.02389
G1 X83.623 Y-33.526 E3.16904
G1 X83.623 Y-32.878 E.02389
G1 X22.27 Y-94.232 E3.20283
M73 P1 R238
G1 X21.623 Y-94.232 E.02389
G1 X83.623 Y-32.231 E3.23662
G1 X83.623 Y-31.584 E.02389
G1 X20.975 Y-94.232 E3.27041
G1 X20.328 Y-94.232 E.02389
G1 X83.623 Y-30.937 E3.30419
G1 X83.623 Y-30.289 E.02389
G1 X19.681 Y-94.232 E3.33798
M73 P1 R237
G1 X19.034 Y-94.232 E.02389
G1 X83.623 Y-29.642 E3.37177
G1 X83.623 Y-28.995 E.02389
G1 X18.386 Y-94.232 E3.40555
G1 X17.739 Y-94.232 E.02389
G1 X83.623 Y-28.348 E3.43934
G1 X83.623 Y-27.701 E.02389
G1 X17.092 Y-94.232 E3.47313
G1 X16.445 Y-94.232 E.02389
G1 X83.623 Y-27.053 E3.50692
G1 X83.623 Y-26.406 E.02389
G1 X15.797 Y-94.232 E3.5407
G1 X15.15 Y-94.232 E.02389
G1 X83.623 Y-25.759 E3.57449
G1 X83.623 Y-25.112 E.02389
G1 X14.503 Y-94.232 E3.60828
G1 X13.856 Y-94.232 E.02389
G1 X83.623 Y-24.464 E3.64207
G1 X83.623 Y-23.817 E.02389
G1 X13.209 Y-94.232 E3.67585
G1 X12.561 Y-94.232 E.02389
G1 X83.623 Y-23.17 E3.70964
G1 X83.623 Y-22.523 E.02389
G1 X11.914 Y-94.232 E3.74343
G1 X11.267 Y-94.232 E.02389
G1 X83.623 Y-21.875 E3.77721
G1 X83.623 Y-21.228 E.02389
G1 X10.62 Y-94.232 E3.811
G1 X9.972 Y-94.232 E.02389
G1 X83.623 Y-20.581 E3.84479
G1 X83.623 Y-19.934 E.02389
G1 X9.325 Y-94.232 E3.87858
G1 X8.678 Y-94.232 E.02389
G1 X83.623 Y-19.287 E3.91236
G1 X83.623 Y-18.639 E.02389
G1 X8.031 Y-94.232 E3.94615
G1 X7.383 Y-94.232 E.02389
G1 X83.623 Y-17.992 E3.97994
G1 X83.623 Y-17.345 E.02389
G1 X6.736 Y-94.232 E4.01373
G1 X6.089 Y-94.232 E.02389
G1 X83.623 Y-16.698 E4.04751
G1 X83.623 Y-16.05 E.02389
G1 X5.442 Y-94.232 E4.0813
G1 X4.795 Y-94.232 E.02389
G1 X83.623 Y-15.403 E4.11509
G1 X83.623 Y-14.756 E.02389
G1 X4.147 Y-94.232 E4.14888
G1 X3.5 Y-94.232 E.02389
G1 X83.623 Y-14.109 E4.18266
G1 X83.623 Y-13.461 E.02389
G1 X2.853 Y-94.232 E4.21645
G1 X2.206 Y-94.232 E.02389
G1 X83.623 Y-12.814 E4.25024
G1 X83.623 Y-12.167 E.02389
G1 X1.558 Y-94.232 E4.28402
G1 X.911 Y-94.232 E.02389
G1 X83.623 Y-11.52 E4.31781
G1 X83.623 Y-10.873 E.02389
G1 X.264 Y-94.232 E4.3516
G1 X-.383 Y-94.232 E.02389
G1 X83.623 Y-10.225 E4.38539
G1 X83.623 Y-9.578 E.02389
G1 X-1.031 Y-94.232 E4.41917
G1 X-1.678 Y-94.232 E.02389
G1 X83.623 Y-8.931 E4.45296
G1 X83.623 Y-8.284 E.02389
G1 X-2.325 Y-94.232 E4.48675
G1 X-2.972 Y-94.232 E.02389
G1 X83.623 Y-7.636 E4.52054
G1 X83.623 Y-6.989 E.02389
G1 X-3.619 Y-94.232 E4.55432
G1 X-4.267 Y-94.232 E.02389
G1 X83.623 Y-6.342 E4.58811
G1 X83.623 Y-5.695 E.02389
G1 X-4.914 Y-94.232 E4.6219
G1 X-5.561 Y-94.232 E.02389
G1 X83.623 Y-5.047 E4.65568
M73 P1 R236
G1 X83.623 Y-4.4 E.02389
G1 X-6.208 Y-94.232 E4.68947
G1 X-6.856 Y-94.232 E.02389
G1 X83.623 Y-3.753 E4.72326
G1 X83.623 Y-3.106 E.02389
G1 X-7.503 Y-94.232 E4.75705
G1 X-8.15 Y-94.232 E.02389
G1 X83.623 Y-2.459 E4.79083
G1 X83.623 Y-1.811 E.02389
G1 X-8.797 Y-94.232 E4.82462
G1 X-9.445 Y-94.232 E.02389
G1 X83.623 Y-1.164 E4.85841
G1 X83.623 Y-.517 E.02389
G1 X-10.092 Y-94.232 E4.8922
G1 X-10.739 Y-94.232 E.02389
G1 X83.623 Y.13 E4.92598
G1 X83.623 Y.778 E.02389
G1 X-11.386 Y-94.232 E4.95977
G1 X-12.033 Y-94.232 E.02389
G1 X83.623 Y1.425 E4.99356
G1 X83.623 Y2.072 E.02389
G1 X-12.681 Y-94.232 E5.02735
G1 X-13.328 Y-94.232 E.02389
G1 X83.623 Y2.719 E5.06113
G1 X83.623 Y3.367 E.02389
G1 X-13.975 Y-94.232 E5.09492
G1 X-14.622 Y-94.232 E.02389
G1 X83.623 Y4.014 E5.12871
G1 X83.623 Y4.661 E.02389
G1 X-15.27 Y-94.232 E5.16249
G1 X-15.917 Y-94.232 E.02389
G1 X83.623 Y5.308 E5.19628
G1 X83.623 Y5.955 E.02389
G1 X-16.564 Y-94.232 E5.23007
G1 X-17.211 Y-94.232 E.02389
G1 X83.623 Y6.603 E5.26386
G1 X83.623 Y7.25 E.02389
G1 X-17.859 Y-94.232 E5.29764
G1 X-18.506 Y-94.232 E.02389
G1 X83.623 Y7.897 E5.33143
G1 X83.623 Y8.544 E.02389
G1 X-19.153 Y-94.232 E5.36522
G1 X-19.8 Y-94.232 E.02389
G1 X83.623 Y9.192 E5.39901
G1 X83.623 Y9.839 E.02389
G1 X-20.447 Y-94.232 E5.43279
G1 X-21.095 Y-94.232 E.02389
G1 X83.623 Y10.486 E5.46658
G1 X83.623 Y11.133 E.02389
G1 X-21.742 Y-94.232 E5.50037
G1 X-22.389 Y-94.232 E.02389
G1 X83.623 Y11.781 E5.53416
G1 X83.623 Y12.428 E.02389
G1 X-23.036 Y-94.232 E5.56794
G1 X-23.684 Y-94.232 E.02389
G1 X83.623 Y13.075 E5.60173
G1 X83.623 Y13.722 E.02389
G1 X-24.331 Y-94.232 E5.63552
G1 X-24.978 Y-94.232 E.02389
G1 X83.623 Y14.369 E5.6693
G1 X83.623 Y15.017 E.02389
G1 X-25.625 Y-94.232 E5.70309
M73 P1 R235
G1 X-26.273 Y-94.232 E.02389
G1 X83.623 Y15.664 E5.73688
G1 X83.623 Y16.311 E.02389
G1 X-26.92 Y-94.232 E5.77067
G1 X-27.567 Y-94.232 E.02389
G1 X83.623 Y16.958 E5.80445
G1 X83.623 Y17.606 E.02389
G1 X-28.214 Y-94.232 E5.83824
G1 X-28.861 Y-94.232 E.02389
G1 X83.623 Y18.253 E5.87203
G1 X83.623 Y18.9 E.02389
G1 X-29.509 Y-94.232 E5.90582
G1 X-30.156 Y-94.232 E.02389
G1 X83.623 Y19.547 E5.9396
G1 X83.623 Y20.195 E.02389
G1 X-30.803 Y-94.232 E5.97339
G1 X-31.45 Y-94.232 E.02389
G1 X83.623 Y20.842 E6.00718
M73 P2 R235
G1 X83.623 Y21.489 E.02389
G1 X-32.098 Y-94.232 E6.04096
G1 X-32.745 Y-94.232 E.02389
G1 X83.623 Y22.136 E6.07475
G1 X83.623 Y22.783 E.02389
G1 X-33.392 Y-94.232 E6.10854
G1 X-34.039 Y-94.232 E.02389
G1 X83.623 Y23.431 E6.14233
G1 X83.623 Y24.078 E.02389
G1 X-34.686 Y-94.232 E6.17611
G1 X-35.334 Y-94.232 E.02389
G1 X83.623 Y24.725 E6.2099
G1 X83.623 Y25.372 E.02389
G1 X-35.981 Y-94.232 E6.24369
G1 X-36.628 Y-94.232 E.02389
G1 X83.623 Y26.02 E6.27748
G1 X83.623 Y26.667 E.02389
G1 X-37.275 Y-94.232 E6.31126
G1 X-37.923 Y-94.232 E.02389
G1 X83.623 Y27.314 E6.34505
G1 X83.623 Y27.961 E.02389
G1 X-38.57 Y-94.232 E6.37884
G1 X-39.217 Y-94.232 E.02389
G1 X83.623 Y28.608 E6.41262
G1 X83.623 Y29.256 E.02389
G1 X-39.864 Y-94.232 E6.44641
G1 X-40.512 Y-94.232 E.02389
G1 X83.623 Y29.903 E6.4802
G1 X83.623 Y30.55 E.02389
G1 X-41.159 Y-94.232 E6.51399
G1 X-41.806 Y-94.232 E.02389
G1 X83.623 Y31.197 E6.54777
G1 X83.623 Y31.845 E.02389
G1 X-42.453 Y-94.232 E6.58156
G1 X-43.1 Y-94.232 E.02389
G1 X83.623 Y32.492 E6.61535
M73 P2 R234
G1 X83.623 Y33.139 E.02389
G1 X-43.748 Y-94.232 E6.64914
G1 X-44.395 Y-94.232 E.02389
G1 X83.623 Y33.786 E6.68292
G1 X83.623 Y34.434 E.02389
G1 X-45.042 Y-94.232 E6.71671
G1 X-45.689 Y-94.232 E.02389
G1 X83.623 Y35.081 E6.7505
G1 X83.623 Y35.728 E.02389
G1 X-46.337 Y-94.232 E6.78429
G1 X-46.984 Y-94.232 E.02389
G1 X83.623 Y36.375 E6.81807
G1 X83.623 Y37.022 E.02389
G1 X-47.631 Y-94.232 E6.85186
G1 X-48.278 Y-94.232 E.02389
G1 X83.623 Y37.67 E6.88565
G1 X83.623 Y38.317 E.02389
G1 X-48.926 Y-94.232 E6.91943
G1 X-49.573 Y-94.232 E.02389
G1 X83.623 Y38.964 E6.95322
G1 X83.623 Y39.611 E.02389
G1 X-50.22 Y-94.232 E6.98701
G1 X-50.867 Y-94.232 E.02389
G1 X83.623 Y40.259 E7.0208
G1 X83.623 Y40.906 E.02389
G1 X-51.514 Y-94.232 E7.05458
G1 X-52.162 Y-94.232 E.02389
G1 X83.623 Y41.553 E7.08837
G1 X83.623 Y42.2 E.02389
G1 X-52.809 Y-94.232 E7.12216
G1 X-53.456 Y-94.232 E.02389
G1 X83.623 Y42.848 E7.15595
G1 X83.623 Y43.495 E.02389
G1 X-54.103 Y-94.232 E7.18973
G1 X-54.751 Y-94.232 E.02389
G1 X83.623 Y44.142 E7.22352
G1 X83.623 Y44.789 E.02389
G1 X-55.398 Y-94.232 E7.25731
G1 X-56.045 Y-94.232 E.02389
G1 X83.623 Y45.436 E7.2911
G1 X83.623 Y46.084 E.02389
G1 X-56.692 Y-94.232 E7.32488
G1 X-57.34 Y-94.232 E.02389
G1 X83.623 Y46.731 E7.35867
G1 X83.623 Y47.378 E.02389
G1 X-57.987 Y-94.232 E7.39246
M73 P2 R233
G1 X-58.634 Y-94.232 E.02389
G1 X83.623 Y48.025 E7.42624
G1 X83.623 Y48.673 E.02389
G1 X-59.281 Y-94.232 E7.46003
G1 X-59.928 Y-94.232 E.02389
G1 X83.623 Y49.32 E7.49382
G1 X83.623 Y49.967 E.02389
G1 X-60.576 Y-94.232 E7.52761
G1 X-61.223 Y-94.232 E.02389
G1 X83.623 Y50.614 E7.56139
G1 X83.623 Y51.262 E.02389
G1 X-61.87 Y-94.232 E7.59518
G1 X-62.517 Y-94.232 E.02389
G1 X83.623 Y51.909 E7.62897
G1 X83.623 Y52.556 E.02389
G1 X-63.165 Y-94.232 E7.66276
G1 X-63.812 Y-94.232 E.02389
G1 X83.623 Y53.203 E7.69654
G1 X83.623 Y53.85 E.02389
G1 X-64.459 Y-94.232 E7.73033
G1 X-65.106 Y-94.232 E.02389
G1 X83.623 Y54.498 E7.76412
G1 X83.623 Y55.145 E.02389
G1 X-65.754 Y-94.232 E7.7979
G1 X-66.401 Y-94.232 E.02389
G1 X83.623 Y55.792 E7.83169
G1 X83.623 Y56.439 E.02389
G1 X-67.048 Y-94.232 E7.86548
