; HEADER_BLOCK_START
; generated by OrcaSlicer 2.0.0 on 2024-11-19 at 20:39:53
; total layer number: 64
; filament_density: 1.27
; filament_diameter: 1.75
; max_z_height: 12.80
; HEADER_BLOCK_END

; THUMBNAIL_BLOCK_START

;
; THUMBNAIL_BLOCK_END

; external perimeters extrusion width = 0.42mm
; perimeters extrusion width = 0.45mm
; infill extrusion width = 0.45mm
; solid infill extrusion width = 0.42mm
; top infill extrusion width = 0.42mm
; first layer extrusion width = 0.50mm

; EXECUTABLE_BLOCK_START
M73 P0 R118
M106 S0
M106 P2 S0
;TYPE:Custom
M190 S75
M104 S250
G90
M83
G1 Z5 F6000
G1 E-1.5 F800
G1 X110 Y-110 F6000
G1 E2 F800
G1 Y-110 X55 Z0.25 F4800
G1 X-55 E8 F2400
G1 Y-109.6 F2400
G1 X55 E5 F2400
G1 Y-110 X55 Z0.45 F4800
G1 X-55 E8 F2400
G1 Y-109.6 F2400
G1 X55 E5 F2400
G92 E0
G90
G21
M83 ; use relative distances for extrusion
; filament start gcode
SET_PRESSURE_ADVANCE ADVANCE=0.036; Override pressure advance value
M106 S0
M106 P2 S0
;LAYER_CHANGE
;Z:0.2
;HEIGHT:0.2
;BEFORE_LAYER_CHANGE
;0.2
G1 E-.8 F2100
;AFTER_LAYER_CHANGE
;0.2
;_SET_FAN_SPEED_CHANGING_LAYER
SET_VELOCITY_LIMIT ACCEL=500
G1 X-78.32 Y0 F30000
G1 Z.4
G1 Z.2
G1 E.8 F2100
;TYPE:Skirt
;WIDTH:0.5
G1 F3000
G1 X-78.32 Y-53.52 E1.97308
G1 X-71.699 Y-89.567 E1.35112
G1 X-71.047 Y-90.932 E.0558
G1 X-69.797 Y-91.787 E.0558
G1 X-68.856 Y-91.95 E.0352
G1 X-33.391 Y-92.226 E1.30752
G1 X42.602 Y-92.226 E2.80155
G1 X78.045 Y-91.95 E1.30668
G1 X79.503 Y-91.546 E.0558
G1 X80.562 Y-90.464 E.0558
G1 X80.888 Y-89.567 E.0352
G1 X87.508 Y-53.52 E1.35112
G1 X87.508 Y46.635 E3.69232
G1 X80.888 Y82.681 E1.35112
G1 X80.235 Y84.047 E.0558
G1 X78.384 Y85.043 E.07749
G1 X42.8 Y89.472 E1.32197
G1 X-33.494 Y89.472 E2.81266
G1 X-69.194 Y85.043 E1.32622
G1 X-70.596 Y84.472 E.0558
G1 X-71.699 Y82.681 E.07753
G1 X-78.32 Y46.635 E1.35112
G1 X-78.32 Y.04 E1.71777
G1 X-77.863 Y.04 F30000
G1 F3000
G1 X-77.863 Y-53.52 E1.97455
G1 X-71.25 Y-89.483 E1.34806
G1 X-70.622 Y-90.721 E.05116
G1 X-68.853 Y-91.493 E.07117
G1 X-33.391 Y-91.769 E1.30739
G1 X42.598 Y-91.769 E2.80142
G1 X78.041 Y-91.493 E1.30668
G1 X79.369 Y-91.091 E.05116
G1 X80.438 Y-89.483 E.07117
G1 X87.051 Y-53.52 E1.34806
G1 X87.051 Y46.635 E3.69232
G1 X80.438 Y82.598 E1.34806
G1 X79.811 Y83.836 E.05116
G1 X78.327 Y84.589 E.06134
G1 X42.8 Y89.015 E1.31987
G1 X-33.494 Y89.015 E2.81266
G1 X-69.138 Y84.589 E1.32413
G1 X-70.41 Y84.036 E.05116
G1 X-71.25 Y82.598 E.06137
G1 X-77.863 Y46.635 E1.34806
G1 X-77.863 Y.08 E1.7163
G1 E-.8 F2100
;WIPE_START
G1 F3000
G1 X-77.863 Y-1.92
;WIPE_END
G1 X-70.289 Y-.975 Z.6 F30000
G1 X-2.772 Y7.454 Z.6
G1 Z.2
G1 E.8 F2100
;TYPE:Inner wall
G1 F3000
G1 X-2.314 Y7.197 E.01936
G3 X.502 Y6.439 I3.147 J6.082 E.10833
G3 X-5.239 Y10.113 I.311 J6.807 E1.31529
G3 X-2.912 Y7.546 I6.072 J3.166 E.12913
G1 X-2.805 Y7.476 E.0047
G1 X-2.541 Y7.849 F30000
;TYPE:Outer wall
G1 F3000
G1 X-2.104 Y7.602 E.01851
G3 X.523 Y6.895 I2.939 J5.691 E.10105
G3 X-4.121 Y9.236 I.289 J6.35 E1.27486
G3 X-2.662 Y7.927 I4.957 J4.057 E.07255
G1 X-2.575 Y7.87 E.00384
G1 E-.8 F2100
;WIPE_START
G1 F3000
G1 X-2.104 Y7.602
G1 X-1.527 Y7.33
G1 X-.935 Y7.129
G1 X-.745 Y7.084
;WIPE_END
G1 X-.071 Y-.519 Z.6 F30000
G1 X1.112 Y-13.863 Z.6
G1 Z.2
G1 E.8 F2100
;TYPE:Inner wall
G1 F3000
G1 X.819 Y-13.85 E.0108
G3 X-5.239 Y-23.797 I-.006 J-6.814 E.51484
G3 X.502 Y-27.471 I6.072 J3.165 E.26301
G3 X1.435 Y-13.879 I.311 J6.807 E.77769
G1 X1.152 Y-13.865 E.01046
G1 X1.091 Y-14.319 F30000
;TYPE:Outer wall
G1 F3000
G1 X.819 Y-14.308 E.01004
G3 X-4.506 Y-24.146 I-.006 J-6.357 E.50417
G3 X.523 Y-27.015 I5.311 J3.468 E.22167
G3 X1.393 Y-14.334 I.289 J6.35 E.72547
G1 X1.131 Y-14.321 E.00969
G1 E-.8 F2100
;WIPE_START
G1 F3000
G1 X.819 Y-14.308
G1 X.25 Y-14.333
G1 X-.338 Y-14.413
G1 X-.849 Y-14.533
;WIPE_END
G1 X-1.439 Y-22.143 Z.6 F30000
G1 X-4.339 Y-59.542 Z.6
G1 Z.2
G1 E.8 F2100
;TYPE:Inner wall
G1 F3000
G1 X-4.001 Y-59.908 E.01835
G3 X.502 Y-61.898 I4.834 J4.85 E.18564
G3 X-5.239 Y-58.223 I.311 J6.807 E1.31529
G3 X-4.473 Y-59.386 I6.072 J3.166 E.05139
G1 X-4.365 Y-59.512 E.00613
G1 X-3.999 Y-59.236 F30000
;TYPE:Outer wall
G1 F3000
G1 X-3.68 Y-59.587 E.01749
G3 X.523 Y-61.441 I4.515 J4.543 E.1732
G3 X-4.121 Y-59.1 I.289 J6.35 E1.27486
G1 X-4.026 Y-59.206 E.00526
G1 E-.8 F2100
;WIPE_START
G1 F3000
G1 X-3.68 Y-59.587
G1 X-3.194 Y-60.029
G1 X-2.666 Y-60.415
G1 X-2.515 Y-60.503
;WIPE_END
G1 X5.112 Y-60.207 Z.6 F30000
G1 X42.115 Y-58.772 Z.6
G1 Z.2
G1 E.8 F2100
;TYPE:Inner wall
G1 F3000
G1 X42.421 Y-58.226 E.0231
G3 X30.32 Y-58.223 I-6.05 J3.135 E1.02932
G3 X36.06 Y-61.898 I6.072 J3.165 E.263
G3 X42.072 Y-58.823 I.311 J6.807 E.26043
G1 X42.089 Y-58.803 E.00099
G1 X41.72 Y-58.541 F30000
;TYPE:Outer wall
G1 F3000
G1 X42.014 Y-58.015 E.02224
G3 X31.437 Y-59.1 I-5.644 J2.923 E1.00811
G3 X36.081 Y-61.441 I4.957 J4.057 E.19743
G3 X41.688 Y-58.572 I.289 J6.35 E.24294
G1 X41.691 Y-58.569 E.00015
G1 E-.8 F2100
;WIPE_START
G1 F3000
G1 X42.014 Y-58.015
G1 X42.289 Y-57.44
G1 X42.491 Y-56.848
G1 X42.513 Y-56.755
;WIPE_END
G1 X42.498 Y-49.122 Z.6 F30000
G1 X42.448 Y-23.751 Z.6
G1 Z.2
G1 E.8 F2100
;TYPE:Inner wall
G1 F3000
G1 X42.704 Y-23.163 E.02367
G3 X30.32 Y-23.781 I-6.333 J2.514 E1.00415
G3 X36.06 Y-27.456 I6.072 J3.165 E.263
G3 X42.421 Y-23.784 I.311 J6.807 E.28597
G1 X42.423 Y-23.782 E.00007
G1 X42.032 Y-23.562 F30000
;TYPE:Outer wall
G1 F3000
G1 X42.278 Y-22.993 E.02283
G3 X31.437 Y-24.658 I-5.908 J2.344 E.98463
G3 X36.081 Y-26.999 I4.957 J4.057 E.19743
G3 X42.005 Y-23.589 I.289 J6.35 E.26605
G1 E-.8 F2100
;WIPE_START
G1 F3000
G1 X42.278 Y-22.993
G1 X42.491 Y-22.406
G1 X42.631 Y-21.813
G1 X42.646 Y-21.703
;WIPE_END
G1 X40.888 Y-14.276 Z.6 F30000
G1 X32.982 Y19.136 Z.6
G1 Z.2
G1 E.8 F2100
;TYPE:Inner wall
G1 F3000
G1 X32.648 Y18.944 E.01422
G3 X30.32 Y10.104 I3.724 J-5.707 E.36938
G3 X36.06 Y6.43 I6.072 J3.165 E.26301
G3 X33.247 Y19.293 I.311 J6.807 E.92031
G1 X33.016 Y19.157 E.00987
G1 X33.212 Y18.742 F30000
;TYPE:Outer wall
G1 F3000
G1 X32.898 Y18.561 E.01335
G3 X31.052 Y9.756 I3.473 J-5.324 E.36848
G3 X36.081 Y6.887 I5.311 J3.467 E.22167
G3 X33.457 Y18.887 I.289 J6.35 E.85851
G1 X33.246 Y18.762 E.00902
M73 P0 R117
G1 E-.8 F2100
;WIPE_START
G1 F3000
G1 X32.898 Y18.561
G1 X32.371 Y18.174
G1 X31.882 Y17.734
G1 X31.69 Y17.522
;WIPE_END
G1 X31.573 Y25.153 Z.6 F30000
G1 X31.144 Y53.054 Z.6
G1 Z.2
G1 E.8 F2100
;TYPE:Inner wall
G1 F3000
G1 X31.085 Y52.992 E.00316
G3 X30.32 Y45.56 I5.286 J-4.3 E.29155
G3 X36.06 Y41.885 I6.072 J3.165 E.263
G3 X31.557 Y53.515 I.311 J6.807 E.99774
G1 X31.171 Y53.084 E.02135
G1 X31.483 Y52.748 F30000
;TYPE:Outer wall
G1 F3000
G1 X31.439 Y52.704 E.00229
G3 X31.437 Y44.683 I4.93 J-4.012 E.31999
G3 X36.081 Y42.342 I4.957 J4.057 E.19743
G3 X31.88 Y53.192 I.289 J6.35 E.93062
G1 X31.51 Y52.777 E.02048
G1 E-.8 F2100
;WIPE_START
G1 F3000
G1 X31.439 Y52.704
G1 X31.056 Y52.174
G1 X30.73 Y51.615
G1 X30.482 Y51.072
;WIPE_END
G1 X22.86 Y50.667 Z.6 F30000
G1 X7.534 Y49.853 Z.6
G1 Z.2
G1 E.8 F2100
;TYPE:Inner wall
G1 F3000
G1 X7.514 Y49.932 E.00301
G3 X-5.239 Y45.564 I-6.701 J-1.235 E.86343
G3 X.502 Y41.89 I6.072 J3.166 E.263
G3 X7.6 Y49.303 I.311 J6.807 E.42846
G1 X7.539 Y49.813 E.01893
G1 X7.081 Y49.791 F30000
;TYPE:Outer wall
G1 F3000
G1 X7.063 Y49.848 E.00223
G3 X-4.121 Y44.687 I-6.251 J-1.152 E.85342
G3 X.523 Y42.346 I4.957 J4.057 E.19743
G3 X7.143 Y49.262 I.289 J6.35 E.39962
G1 X7.086 Y49.751 E.01816
G1 E-.8 F2100
;WIPE_START
G1 F3000
G1 X7.063 Y49.848
G1 X6.934 Y50.443
G1 X6.733 Y51.033
G1 X6.47 Y51.613
G1 X6.454 Y51.64
;WIPE_END
G1 X-1.019 Y50.087 Z.6 F30000
G1 X-38.389 Y42.321 Z.6
G1 Z.2
G1 E.8 F2100
;TYPE:Inner wall
G1 F3000
G1 X-37.788 Y42.125 E.02327
G3 X-36.227 Y41.867 I1.893 J6.581 E.05848
G3 X-41.968 Y45.541 I.311 J6.807 E1.31527
G3 X-38.423 Y42.342 I6.072 J3.165 E.17981
G1 X-38.241 Y42.753 F30000
;TYPE:Outer wall
G1 F3000
G1 X-37.662 Y42.565 E.02245
G3 X-36.206 Y42.323 I1.769 J6.156 E.05454
G3 X-40.85 Y44.664 I.288 J6.35 E1.27487
G3 X-38.274 Y42.774 I4.957 J4.057 E.11904
G1 E-.8 F2100
;WIPE_START
G1 F3000
G1 X-37.662 Y42.565
G1 X-37.071 Y42.417
G1 X-36.485 Y42.336
G1 X-36.333 Y42.329
;WIPE_END
G1 X-37.444 Y34.778 Z.6 F30000
G1 X-41.249 Y8.934 Z.6
G1 Z.2
G1 E.8 F2100
;TYPE:Inner wall
G1 F3000
G1 X-41.202 Y8.877 E.0027
G3 X-36.227 Y6.365 I5.307 J4.328 E.21161
G3 X-41.968 Y10.04 I.311 J6.807 E1.31527
G3 X-41.616 Y9.442 I6.072 J3.165 E.02557
G1 X-41.272 Y8.966 E.02165
G1 X-40.88 Y9.203 F30000
;TYPE:Outer wall
G1 F3000
G1 X-40.85 Y9.163 E.00184
G3 X-36.206 Y6.822 I4.926 J3.996 E.19756
G3 X-41.235 Y9.691 I.289 J6.35 E1.25085
G1 X-40.903 Y9.235 E.02079
G1 E-.8 F2100
;WIPE_START
G1 F3000
G1 X-40.85 Y9.163
G1 X-40.41 Y8.674
G1 X-39.922 Y8.234
G1 X-39.442 Y7.882
;WIPE_END
G1 X-39.825 Y.26 Z.6 F30000
G1 X-41.099 Y-25.063 Z.6
G1 Z.2
G1 E.8 F2100
;TYPE:Inner wall
G1 F3000
G1 X-40.73 Y-25.464 E.02011
G3 X-36.227 Y-27.454 I4.834 J4.85 E.18565
G3 X-41.968 Y-23.78 I.311 J6.807 E1.31527
G3 X-41.202 Y-24.942 I6.072 J3.165 E.0514
G1 X-41.125 Y-25.033 E.00437
G1 X-40.76 Y-24.757 F30000
;TYPE:Outer wall
G1 F3000
G1 X-40.41 Y-25.145 E.01925
G3 X-36.206 Y-26.998 I4.486 J4.484 E.17332
G3 X-41.235 Y-24.129 I.289 J6.35 E1.25085
M73 P1 R117
G3 X-40.85 Y-24.657 I5.311 J3.468 E.02411
G1 X-40.787 Y-24.727 E.00351
G1 E-.8 F2100
;WIPE_START
G1 F3000
G1 X-40.41 Y-25.145
G1 X-39.922 Y-25.586
G1 X-39.395 Y-25.971
G1 X-39.285 Y-26.035
;WIPE_END
G1 X-40.005 Y-33.634 Z.6 F30000
G1 X-41.7 Y-51.505 Z.6
G1 Z.2
G1 E.8 F2100
;TYPE:Inner wall
G1 F3000
G1 X-41.966 Y-51.956 E.01929
G3 X-41.968 Y-58.223 I6.05 J-3.135 E.24011
G3 X-36.227 Y-61.898 I6.072 J3.166 E.263
G3 X-41.616 Y-51.357 I.311 J6.807 E1.04959
G1 X-41.68 Y-51.47 E.00481
G1 X-41.305 Y-51.736 F30000
;TYPE:Outer wall
G1 F3000
G1 X-41.561 Y-52.166 E.01844
G3 X-40.85 Y-59.1 I5.643 J-2.925 E.27199
G3 X-36.206 Y-61.441 I4.957 J4.057 E.19743
G3 X-41.234 Y-51.607 I.289 J6.35 E.979
G1 X-41.286 Y-51.701 E.00395
G1 E-.8 F2100
;WIPE_START
G1 F3000
G1 X-41.561 Y-52.166
G1 X-41.822 Y-52.748
G1 X-42.024 Y-53.34
G1 X-42.069 Y-53.531
;WIPE_END
G1 X-41.53 Y-45.918 Z.6 F30000
G1 X-32.534 Y81.294 Z.6
G1 Z.2
G1 E.8 F2100
;TYPE:Inner wall
G1 F3000
G1 X-67.977 Y81.294 E1.30665
G1 X-67.977 Y45.778 E1.30935
G1 X-74.549 Y45.778 E.24229
G1 X-74.549 Y-52.663 E3.62913
G1 X-67.977 Y-52.663 E.24229
G1 X-67.977 Y-88.179 E1.30935
G1 X-32.534 Y-88.179 E1.30664
G1 X-32.534 Y-88.455 E.01016
G1 X41.722 Y-88.455 E2.73752
G1 X41.722 Y-88.179 E.01016
G1 X77.165 Y-88.179 E1.30664
G1 X77.165 Y-52.663 E1.30935
G1 X83.737 Y-52.663 E.24229
G1 X83.737 Y45.778 E3.62913
G1 X77.165 Y45.778 E.24229
G1 X77.165 Y81.294 E1.30935
G1 X41.722 Y81.294 E1.30665
G1 X41.733 Y85.742 E.16398
G2 X40.811 Y85.701 I-.761 J6.736 E.03407
G1 X-32.544 Y85.702 E2.7043
G1 X-32.534 Y81.334 E.16105
G1 X-32.991 Y81.751 F30000
;TYPE:Outer wall
G1 F3000
G1 X-68.434 Y81.751 E1.30664
G1 X-68.434 Y46.235 E1.30935
G1 X-75.006 Y46.235 E.24229
G1 X-75.006 Y-53.12 E3.66283
G1 X-68.434 Y-53.12 E.24229
G1 X-68.434 Y-88.636 E1.30935
G1 X-32.991 Y-88.636 E1.30664
G1 X-32.991 Y-88.912 E.01016
G1 X42.179 Y-88.912 E2.77122
G1 X42.179 Y-88.636 E.01016
G1 X77.622 Y-88.636 E1.30664
G1 X77.622 Y-53.12 E1.30935
G1 X84.194 Y-53.12 E.24229
G1 X84.194 Y46.235 E3.66283
G1 X77.622 Y46.235 E.24229
G1 X77.622 Y81.751 E1.30935
G1 X42.179 Y81.751 E1.30664
G2 X42.187 Y85.568 I123.534 J1.64 E.14073
G2 X42.276 Y86.297 I3.127 J-.011 E.02715
G2 X40.807 Y86.158 I-1.325 J6.149 E.05453
G1 X-31.999 Y86.157 E2.68406
G2 X-33.06 Y86.164 I-.452 J12.633 E.03916
G1 X-33.043 Y86.078 E.00324
G2 X-32.991 Y85.071 I-7.166 J-.871 E.03719
G1 X-32.991 Y81.791 E.12092
G1 E-.8 F2100
;WIPE_START
G1 F3000
G1 X-34.991 Y81.789
;WIPE_END
G1 X-30.773 Y75.428 Z.6 F30000
G1 X76.982 Y-87.071 Z.6
G1 Z.2
G1 E.8 F2100
;TYPE:Bottom surface
;WIDTH:0.50068
G1 F4800
G1 X76.262 Y-87.791 E.03758
G1 X75.615 Y-87.791 E.0239
G1 X76.776 Y-86.629 E.06064
G1 X76.776 Y-85.982 E.0239
G1 X74.968 Y-87.791 E.09444
G1 X74.32 Y-87.791 E.0239
G1 X76.776 Y-85.335 E.12825
G1 X76.776 Y-84.687 E.0239
G1 X73.673 Y-87.791 E.16205
G1 X73.026 Y-87.791 E.0239
G1 X76.776 Y-84.04 E.19585
G1 X76.776 Y-83.392 E.0239
G1 X72.378 Y-87.791 E.22965
G1 X71.731 Y-87.791 E.0239
G1 X76.776 Y-82.745 E.26345
G1 X76.776 Y-82.098 E.0239
G1 X71.083 Y-87.791 E.29726
G1 X70.436 Y-87.791 E.0239
G1 X76.776 Y-81.45 E.33106
G1 X76.776 Y-80.803 E.0239
G1 X69.789 Y-87.791 E.36486
G1 X69.141 Y-87.791 E.0239
G1 X76.776 Y-80.156 E.39866
G1 X76.776 Y-79.508 E.0239
G1 X68.494 Y-87.791 E.43246
G1 X67.847 Y-87.791 E.0239
G1 X76.776 Y-78.861 E.46627
G1 X76.776 Y-78.213 E.0239
G1 X67.199 Y-87.791 E.50007
G1 X66.552 Y-87.791 E.0239
G1 X76.776 Y-77.566 E.53387
G1 X76.776 Y-76.919 E.0239
G1 X65.904 Y-87.791 E.56767
G1 X65.257 Y-87.791 E.0239
G1 X76.776 Y-76.271 E.60147
G1 X76.776 Y-75.624 E.0239
G1 X64.61 Y-87.791 E.63528
G1 X63.962 Y-87.791 E.0239
G1 X76.776 Y-74.977 E.66908
G1 X76.776 Y-74.329 E.0239
G1 X63.315 Y-87.791 E.70288
G1 X62.668 Y-87.791 E.0239
G1 X76.776 Y-73.682 E.73668
G1 X76.776 Y-73.035 E.0239
G1 X62.02 Y-87.791 E.77048
G1 X61.373 Y-87.791 E.0239
G1 X76.776 Y-72.387 E.80428
G1 X76.776 Y-71.74 E.0239
G1 X60.726 Y-87.791 E.83809
G1 X60.078 Y-87.791 E.0239
G1 X76.776 Y-71.092 E.87189
G1 X76.776 Y-70.445 E.0239
G1 X59.431 Y-87.791 E.90569
G1 X58.783 Y-87.791 E.0239
G1 X76.776 Y-69.798 E.93949
G1 X76.776 Y-69.15 E.0239
G1 X58.136 Y-87.791 E.97329
G1 X57.489 Y-87.791 E.0239
G1 X76.776 Y-68.503 E1.0071
G1 X76.776 Y-67.856 E.0239
G1 X56.841 Y-87.791 E1.0409
G1 X56.194 Y-87.791 E.0239
G1 X76.776 Y-67.208 E1.0747
G1 X76.776 Y-66.561 E.0239
G1 X55.547 Y-87.791 E1.1085
G1 X54.899 Y-87.791 E.0239
G1 X76.776 Y-65.913 E1.1423
G1 X76.776 Y-65.266 E.0239
G1 X54.252 Y-87.791 E1.17611
M73 P1 R116
G1 X53.604 Y-87.791 E.0239
G1 X76.776 Y-64.619 E1.20991
G1 X76.776 Y-63.971 E.0239
G1 X52.957 Y-87.791 E1.24371
G1 X52.31 Y-87.791 E.0239
G1 X76.776 Y-63.324 E1.27751
G1 X76.776 Y-62.677 E.0239
G1 X51.662 Y-87.791 E1.31131
G1 X51.015 Y-87.791 E.0239
G1 X76.776 Y-62.029 E1.34512
G1 X76.776 Y-61.382 E.0239
G1 X50.368 Y-87.791 E1.37892
G1 X49.72 Y-87.791 E.0239
G1 X76.776 Y-60.734 E1.41272
G1 X76.776 Y-60.087 E.0239
G1 X49.073 Y-87.791 E1.44652
G1 X48.425 Y-87.791 E.0239
G1 X76.776 Y-59.44 E1.48032
G1 X76.776 Y-58.792 E.0239
G1 X47.778 Y-87.791 E1.51413
G1 X47.131 Y-87.791 E.0239
G1 X76.776 Y-58.145 E1.54793
G1 X76.776 Y-57.498 E.0239
G1 X46.483 Y-87.791 E1.58173
G1 X45.836 Y-87.791 E.0239
G1 X76.776 Y-56.85 E1.61553
G1 X76.776 Y-56.203 E.0239
G1 X45.189 Y-87.791 E1.64933
G1 X44.541 Y-87.791 E.0239
G1 X76.776 Y-55.556 E1.68313
G1 X76.776 Y-54.908 E.0239
G1 X43.894 Y-87.791 E1.71694
G1 X43.247 Y-87.791 E.0239
G1 X76.776 Y-54.261 E1.75074
G1 X76.776 Y-53.613 E.0239
G1 X42.599 Y-87.791 E1.78454
G1 X41.952 Y-87.791 E.0239
G1 X76.982 Y-52.76 E1.82908
G1 E-.8 F2100
;WIPE_START
G1 F4800
G1 X75.568 Y-54.175
;WIPE_END
G1 X83.014 Y-52.497 Z.6 F30000
G1 X83.089 Y-52.48 Z.6
G1 Z.2
G1 E.8 F2100
G1 F4800
G1 X83.349 Y-52.22 E.01357
G1 X83.349 Y-51.573 E.0239
G1 X82.647 Y-52.274 E.03664
G1 X82 Y-52.274 E.0239
G1 X83.349 Y-50.925 E.07044
G1 X83.349 Y-50.278 E.0239
G1 X81.352 Y-52.274 E.10424
G1 X80.705 Y-52.274 E.0239
G1 X83.349 Y-49.631 E.13804
G1 X83.349 Y-48.983 E.0239
G1 X80.057 Y-52.274 E.17184
G1 X79.41 Y-52.274 E.0239
G1 X83.349 Y-48.336 E.20565
G1 X83.349 Y-47.689 E.0239
G1 X78.763 Y-52.274 E.23945
G1 X78.115 Y-52.274 E.0239
G1 X83.349 Y-47.041 E.27325
G1 X83.349 Y-46.394 E.0239
G1 X77.262 Y-52.48 E.31779
G1 E-.8 F2100
;WIPE_START
G1 F4800
G1 X78.677 Y-51.066
;WIPE_END
G1 X83.554 Y-45.541 Z.6 F30000
G1 Z.2
G1 E.8 F2100
G1 F4800
G1 X41.029 Y-88.066 E2.22043
G1 X40.382 Y-88.066 E.0239
G1 X83.349 Y-45.099 E2.24349
G1 X83.349 Y-44.452 E.0239
G1 X39.734 Y-88.066 E2.27729
G1 X39.087 Y-88.066 E.0239
G1 X83.349 Y-43.804 E2.3111
G1 X83.349 Y-43.157 E.0239
G1 X38.439 Y-88.066 E2.3449
G1 X37.792 Y-88.066 E.0239
G1 X83.349 Y-42.51 E2.3787
G1 X83.349 Y-41.862 E.0239
G1 X37.145 Y-88.066 E2.4125
G1 X36.497 Y-88.066 E.0239
G1 X83.349 Y-41.215 E2.4463
G1 X83.349 Y-40.568 E.0239
G1 X35.85 Y-88.066 E2.48011
M73 P2 R116
G1 X35.203 Y-88.066 E.0239
G1 X83.349 Y-39.92 E2.51391
G1 X83.349 Y-39.273 E.0239
G1 X34.555 Y-88.066 E2.54771
