; HEADER_BLOCK_START
; generated by OrcaSlicer 2.0.0 on 2024-11-19 at 19:14:40
; total layer number: 154
; filament_density: 1.27
; filament_diameter: 1.75
; max_z_height: 30.80
; HEADER_BLOCK_END

; THUMBNAIL_BLOCK_START

;
; THUMBNAIL_BLOCK_END

; external perimeters extrusion width = 0.42mm
; perimeters extrusion width = 0.45mm
; infill extrusion width = 0.45mm
; solid infill extrusion width = 0.42mm
; top infill extrusion width = 0.42mm
; first layer extrusion width = 0.50mm

; EXECUTABLE_BLOCK_START
M73 P0 R168
M106 S0
M106 P2 S0
;TYPE:Custom
M190 S75
M104 S250
G90
M83
G1 Z5 F6000
G1 E-1.5 F800
G1 X110 Y-110 F6000
G1 E2 F800
G1 Y-110 X55 Z0.25 F4800
G1 X-55 E8 F2400
G1 Y-109.6 F2400
G1 X55 E5 F2400
G1 Y-110 X55 Z0.45 F4800
G1 X-55 E8 F2400
G1 Y-109.6 F2400
G1 X55 E5 F2400
G92 E0
G90
G21
M83 ; use relative distances for extrusion
; filament start gcode
SET_PRESSURE_ADVANCE ADVANCE=0.036; Override pressure advance value
M106 S0
M106 P2 S0
;LAYER_CHANGE
;Z:0.2
;HEIGHT:0.2
;BEFORE_LAYER_CHANGE
;0.2
G1 E-.8 F2100
;AFTER_LAYER_CHANGE
;0.2
;_SET_FAN_SPEED_CHANGING_LAYER
SET_VELOCITY_LIMIT ACCEL=500
G1 X72.921 Y0 F30000
G1 Z.4
G1 Z.2
G1 E.8 F2100
;TYPE:Skirt
;WIDTH:0.5
G1 F3000
G1 X72.921 Y88.067 E3.2467
G1 X72.257 Y89.919 E.07252
G1 X64.812 Y98.966 E.43195
G1 X63.58 Y99.845 E.0558
G1 X62.562 Y100.029 E.03813
G1 X-62.562 Y100.029 E4.61283
G1 X-64.024 Y99.636 E.0558
G1 X-64.812 Y98.966 E.03813
G1 X-72.257 Y89.919 E.43195
G1 X-72.921 Y88.067 E.07252
G1 X-72.921 Y-97.115 E6.82694
G1 X-72.528 Y-98.576 E.0558
G1 X-71.455 Y-99.644 E.0558
G1 X-70.007 Y-100.029 E.05523
G1 X70.007 Y-100.029 E5.16177
M73 P0 R167
G1 X71.469 Y-99.636 E.0558
G1 X72.536 Y-98.562 E.0558
G1 X72.921 Y-97.115 E.05523
G1 X72.921 Y-.04 E3.57876
G1 X72.464 Y-.04 F30000
G1 F3000
G1 X72.464 Y88.067 E3.24818
G1 X71.904 Y89.629 E.06115
G1 X64.459 Y98.676 E.43195
G1 X63.311 Y99.455 E.05116
G1 X62.562 Y99.572 E.02794
G1 X-62.562 Y99.572 E4.61283
G1 X-63.893 Y99.18 E.05116
G1 X-64.459 Y98.676 E.02794
G1 X-71.904 Y89.629 E.43195
G1 X-72.464 Y88.067 E.06115
G1 X-72.464 Y-97.115 E6.82694
G1 X-72.072 Y-98.446 E.05116
G1 X-71.022 Y-99.352 E.05116
G1 X-70.007 Y-99.572 E.03827
G1 X70.007 Y-99.572 E5.16177
G1 X71.338 Y-99.18 E.05116
G1 X72.245 Y-98.129 E.05116
G1 X72.464 Y-97.115 E.03827
G1 X72.464 Y-.08 E3.57729
G1 E-.8 F2100
;WIPE_START
G1 F3000
G1 X72.464 Y1.92
;WIPE_END
G1 X66.023 Y6.015 Z.6 F30000
G1 X-61.705 Y87.21 Z.6
G1 Z.2
G1 E.8 F2100
;TYPE:Inner wall
G1 F3000
G1 X-69.15 Y87.21 E.27447
G1 X-69.15 Y-96.257 E6.76375
G1 X69.15 Y-96.257 E5.09858
G1 X69.15 Y87.21 E6.76375
G1 X61.705 Y87.21 E.27447
G1 X61.705 Y96.257 E.33353
G1 X-61.705 Y96.257 E4.54963
G1 X-61.705 Y87.25 E.33206
G1 X-62.162 Y87.667 F30000
;TYPE:Outer wall
G1 F3000
G1 X-69.607 Y87.667 E.27447
G1 X-69.607 Y-96.715 E6.79745
G1 X69.607 Y-96.715 E5.13228
G1 X69.607 Y87.667 E6.79745
G1 X62.162 Y87.667 E.27447
G1 X62.162 Y96.715 E.33353
G1 X-62.162 Y96.715 E4.58334
G1 X-62.162 Y87.707 E.33206
G1 E-.8 F2100
;WIPE_START
G1 F3000
G1 X-64.162 Y87.697
;WIPE_END
G1 X-59.705 Y81.501 Z.6 F30000
G1 X68.043 Y-96.075 Z.6
G1 Z.2
G1 E.8 F2100
;TYPE:Bottom surface
;WIDTH:0.500243
G1 F4800
G1 X68.761 Y-95.356 E.0375
G1 X68.761 Y-94.709 E.02386
G1 X67.602 Y-95.869 E.0605
G1 X66.955 Y-95.869 E.02386
G1 X68.761 Y-94.062 E.09424
G1 X68.761 Y-93.416 E.02386
G1 X66.308 Y-95.869 E.12798
G1 X65.661 Y-95.869 E.02386
G1 X68.761 Y-92.769 E.16172
G1 X68.761 Y-92.122 E.02386
G1 X65.015 Y-95.869 E.19545
G1 X64.368 Y-95.869 E.02386
G1 X68.761 Y-91.475 E.22919
G1 X68.761 Y-90.829 E.02386
G1 X63.721 Y-95.869 E.26293
G1 X63.074 Y-95.869 E.02386
G1 X68.761 Y-90.182 E.29667
G1 X68.761 Y-89.535 E.02386
G1 X62.427 Y-95.869 E.3304
G1 X61.781 Y-95.869 E.02386
G1 X68.761 Y-88.888 E.36414
G1 X68.761 Y-88.242 E.02386
G1 X61.134 Y-95.869 E.39788
G1 X60.487 Y-95.869 E.02386
G1 X68.761 Y-87.595 E.43162
G1 X68.761 Y-86.948 E.02386
G1 X59.84 Y-95.869 E.46535
G1 X59.194 Y-95.869 E.02386
G1 X68.761 Y-86.301 E.49909
G1 X68.761 Y-85.655 E.02386
G1 X58.547 Y-95.869 E.53283
G1 X57.9 Y-95.869 E.02386
G1 X68.761 Y-85.008 E.56657
G1 X68.761 Y-84.361 E.02386
G1 X57.253 Y-95.869 E.6003
G1 X56.607 Y-95.869 E.02386
G1 X68.761 Y-83.714 E.63404
G1 X68.761 Y-83.067 E.02386
G1 X55.96 Y-95.869 E.66778
G1 X55.313 Y-95.869 E.02386
G1 X68.761 Y-82.421 E.70151
G1 X68.761 Y-81.774 E.02386
G1 X54.666 Y-95.869 E.73525
G1 X54.02 Y-95.869 E.02386
G1 X68.761 Y-81.127 E.76899
G1 X68.761 Y-80.48 E.02386
G1 X53.373 Y-95.869 E.80273
G1 X52.726 Y-95.869 E.02386
G1 X68.761 Y-79.834 E.83646
G1 X68.761 Y-79.187 E.02386
G1 X52.079 Y-95.869 E.8702
G1 X51.433 Y-95.869 E.02386
G1 X68.761 Y-78.54 E.90394
G1 X68.761 Y-77.893 E.02386
G1 X50.786 Y-95.869 E.93768
G1 X50.139 Y-95.869 E.02386
G1 X68.761 Y-77.247 E.97141
G1 X68.761 Y-76.6 E.02386
G1 X49.492 Y-95.869 E1.00515
G1 X48.846 Y-95.869 E.02386
G1 X68.761 Y-75.953 E1.03889
G1 X68.761 Y-75.306 E.02386
G1 X48.199 Y-95.869 E1.07263
G1 X47.552 Y-95.869 E.02386
G1 X68.761 Y-74.66 E1.10636
M73 P0 R166
G1 X68.761 Y-74.013 E.02386
G1 X46.905 Y-95.869 E1.1401
G1 X46.259 Y-95.869 E.02386
G1 X68.761 Y-73.366 E1.17384
G1 X68.761 Y-72.719 E.02386
G1 X45.612 Y-95.869 E1.20758
G1 X44.965 Y-95.869 E.02386
G1 X68.761 Y-72.073 E1.24131
G1 X68.761 Y-71.426 E.02386
G1 X44.318 Y-95.869 E1.27505
G1 X43.672 Y-95.869 E.02386
G1 X68.761 Y-70.779 E1.30879
G1 X68.761 Y-70.132 E.02386
G1 X43.025 Y-95.869 E1.34253
G1 X42.378 Y-95.869 E.02386
G1 X68.761 Y-69.486 E1.37626
G1 X68.761 Y-68.839 E.02386
G1 X41.731 Y-95.869 E1.41
G1 X41.085 Y-95.869 E.02386
G1 X68.761 Y-68.192 E1.44374
G1 X68.761 Y-67.545 E.02386
G1 X40.438 Y-95.869 E1.47748
G1 X39.791 Y-95.869 E.02386
G1 X68.761 Y-66.899 E1.51121
G1 X68.761 Y-66.252 E.02386
G1 X39.144 Y-95.869 E1.54495
G1 X38.498 Y-95.869 E.02386
G1 X68.761 Y-65.605 E1.57869
G1 X68.761 Y-64.958 E.02386
G1 X37.851 Y-95.869 E1.61243
G1 X37.204 Y-95.869 E.02386
G1 X68.761 Y-64.312 E1.64616
G1 X68.761 Y-63.665 E.02386
G1 X36.557 Y-95.869 E1.6799
G1 X35.911 Y-95.869 E.02386
G1 X68.761 Y-63.018 E1.71364
G1 X68.761 Y-62.371 E.02386
G1 X35.264 Y-95.869 E1.74737
G1 X34.617 Y-95.869 E.02386
G1 X68.761 Y-61.725 E1.78111
G1 X68.761 Y-61.078 E.02386
G1 X33.97 Y-95.869 E1.81485
G1 X33.324 Y-95.869 E.02386
G1 X68.761 Y-60.431 E1.84859
G1 X68.761 Y-59.784 E.02386
G1 X32.677 Y-95.869 E1.88232
M73 P1 R166
G1 X32.03 Y-95.869 E.02386
G1 X68.761 Y-59.138 E1.91606
G1 X68.761 Y-58.491 E.02386
G1 X31.383 Y-95.869 E1.9498
G1 X30.737 Y-95.869 E.02386
G1 X68.761 Y-57.844 E1.98354
G1 X68.761 Y-57.197 E.02386
G1 X30.09 Y-95.869 E2.01727
G1 X29.443 Y-95.869 E.02386
G1 X68.761 Y-56.551 E2.05101
G1 X68.761 Y-55.904 E.02386
G1 X28.796 Y-95.869 E2.08475
G1 X28.15 Y-95.869 E.02386
G1 X68.761 Y-55.257 E2.11849
G1 X68.761 Y-54.61 E.02386
G1 X27.503 Y-95.869 E2.15222
G1 X26.856 Y-95.869 E.02386
G1 X68.761 Y-53.964 E2.18596
G1 X68.761 Y-53.317 E.02386
G1 X26.209 Y-95.869 E2.2197
G1 X25.563 Y-95.869 E.02386
G1 X68.761 Y-52.67 E2.25344
G1 X68.761 Y-52.023 E.02386
G1 X24.916 Y-95.869 E2.28717
G1 X24.269 Y-95.869 E.02386
G1 X68.761 Y-51.377 E2.32091
G1 X68.761 Y-50.73 E.02386
G1 X23.622 Y-95.869 E2.35465
G1 X22.976 Y-95.869 E.02386
G1 X68.761 Y-50.083 E2.38839
G1 X68.761 Y-49.436 E.02386
G1 X22.329 Y-95.869 E2.42212
G1 X21.682 Y-95.869 E.02386
G1 X68.761 Y-48.79 E2.45586
G1 X68.761 Y-48.143 E.02386
G1 X21.035 Y-95.869 E2.4896
G1 X20.389 Y-95.869 E.02386
G1 X68.761 Y-47.496 E2.52334
G1 X68.761 Y-46.849 E.02386
G1 X19.742 Y-95.869 E2.55707
G1 X19.095 Y-95.869 E.02386
G1 X68.761 Y-46.203 E2.59081
G1 X68.761 Y-45.556 E.02386
G1 X18.448 Y-95.869 E2.62455
G1 X17.802 Y-95.869 E.02386
G1 X68.761 Y-44.909 E2.65829
G1 X68.761 Y-44.262 E.02386
G1 X17.155 Y-95.869 E2.69202
G1 X16.508 Y-95.869 E.02386
G1 X68.761 Y-43.616 E2.72576
G1 X68.761 Y-42.969 E.02386
G1 X15.861 Y-95.869 E2.7595
G1 X15.215 Y-95.869 E.02386
G1 X68.761 Y-42.322 E2.79323
G1 X68.761 Y-41.675 E.02386
G1 X14.568 Y-95.869 E2.82697
G1 X13.921 Y-95.869 E.02386
G1 X68.761 Y-41.029 E2.86071
G1 X68.761 Y-40.382 E.02386
G1 X13.274 Y-95.869 E2.89445
G1 X12.628 Y-95.869 E.02386
G1 X68.761 Y-39.735 E2.92818
G1 X68.761 Y-39.088 E.02386
G1 X11.981 Y-95.869 E2.96192
G1 X11.334 Y-95.869 E.02386
G1 X68.761 Y-38.442 E2.99566
G1 X68.761 Y-37.795 E.02386
G1 X10.687 Y-95.869 E3.0294
G1 X10.041 Y-95.869 E.02386
G1 X68.761 Y-37.148 E3.06313
G1 X68.761 Y-36.501 E.02386
G1 X9.394 Y-95.869 E3.09687
G1 X8.747 Y-95.869 E.02386
G1 X68.761 Y-35.855 E3.13061
G1 X68.761 Y-35.208 E.02386
G1 X8.1 Y-95.869 E3.16435
G1 X7.454 Y-95.869 E.02386
G1 X68.761 Y-34.561 E3.19808
G1 X68.761 Y-33.914 E.02386
G1 X6.807 Y-95.869 E3.23182
G1 X6.16 Y-95.869 E.02386
G1 X68.761 Y-33.268 E3.26556
G1 X68.761 Y-32.621 E.02386
G1 X5.513 Y-95.869 E3.2993
M73 P1 R165
G1 X4.867 Y-95.869 E.02386
G1 X68.761 Y-31.974 E3.33303
G1 X68.761 Y-31.327 E.02386
G1 X4.22 Y-95.869 E3.36677
G1 X3.573 Y-95.869 E.02386
G1 X68.761 Y-30.681 E3.40051
G1 X68.761 Y-30.034 E.02386
G1 X2.926 Y-95.869 E3.43425
G1 X2.28 Y-95.869 E.02386
G1 X68.761 Y-29.387 E3.46798
G1 X68.761 Y-28.74 E.02386
G1 X1.633 Y-95.869 E3.50172
G1 X.986 Y-95.869 E.02386
G1 X68.761 Y-28.094 E3.53546
G1 X68.761 Y-27.447 E.02386
G1 X.339 Y-95.869 E3.5692
G1 X-.307 Y-95.869 E.02386
G1 X68.761 Y-26.8 E3.60293
G1 X68.761 Y-26.153 E.02386
G1 X-.954 Y-95.869 E3.63667
G1 X-1.601 Y-95.869 E.02386
G1 X68.761 Y-25.507 E3.67041
G1 X68.761 Y-24.86 E.02386
G1 X-2.248 Y-95.869 E3.70415
G1 X-2.894 Y-95.869 E.02386
G1 X68.761 Y-24.213 E3.73788
G1 X68.761 Y-23.566 E.02386
G1 X-3.541 Y-95.869 E3.77162
G1 X-4.188 Y-95.869 E.02386
G1 X68.761 Y-22.92 E3.80536
G1 X68.761 Y-22.273 E.02386
G1 X-4.835 Y-95.869 E3.83909
G1 X-5.482 Y-95.869 E.02386
G1 X68.761 Y-21.626 E3.87283
G1 X68.761 Y-20.979 E.02386
G1 X-6.128 Y-95.869 E3.90657
G1 X-6.775 Y-95.869 E.02386
G1 X68.761 Y-20.333 E3.94031
G1 X68.761 Y-19.686 E.02386
G1 X-7.422 Y-95.869 E3.97404
G1 X-8.069 Y-95.869 E.02386
G1 X68.761 Y-19.039 E4.00778
G1 X68.761 Y-18.392 E.02386
G1 X-8.715 Y-95.869 E4.04152
G1 X-9.362 Y-95.869 E.02386
G1 X68.761 Y-17.746 E4.07526
G1 X68.761 Y-17.099 E.02386
G1 X-10.009 Y-95.869 E4.10899
G1 X-10.656 Y-95.869 E.02386
G1 X68.761 Y-16.452 E4.14273
G1 X68.761 Y-15.805 E.02386
G1 X-11.302 Y-95.869 E4.17647
G1 X-11.949 Y-95.869 E.02386
G1 X68.761 Y-15.158 E4.21021
G1 X68.761 Y-14.512 E.02386
G1 X-12.596 Y-95.869 E4.24394
G1 X-13.243 Y-95.869 E.02386
G1 X68.761 Y-13.865 E4.27768
G1 X68.761 Y-13.218 E.02386
G1 X-13.889 Y-95.869 E4.31142
G1 X-14.536 Y-95.869 E.02386
G1 X68.761 Y-12.571 E4.34516
G1 X68.761 Y-11.925 E.02386
G1 X-15.183 Y-95.869 E4.37889
G1 X-15.83 Y-95.869 E.02386
G1 X68.761 Y-11.278 E4.41263
G1 X68.761 Y-10.631 E.02386
G1 X-16.476 Y-95.869 E4.44637
G1 X-17.123 Y-95.869 E.02386
G1 X68.761 Y-9.984 E4.48011
G1 X68.761 Y-9.338 E.02386
G1 X-17.77 Y-95.869 E4.51384
G1 X-18.417 Y-95.869 E.02386
G1 X68.761 Y-8.691 E4.54758
G1 X68.761 Y-8.044 E.02386
G1 X-19.063 Y-95.869 E4.58132
M73 P2 R165
G1 X-19.71 Y-95.869 E.02386
G1 X68.761 Y-7.397 E4.61506
G1 X68.761 Y-6.751 E.02386
G1 X-20.357 Y-95.869 E4.64879
M73 P2 R164
G1 X-21.004 Y-95.869 E.02386
G1 X68.761 Y-6.104 E4.68253
G1 X68.761 Y-5.457 E.02386
G1 X-21.65 Y-95.869 E4.71627
G1 X-22.297 Y-95.869 E.02386
G1 X68.761 Y-4.81 E4.75001
G1 X68.761 Y-4.164 E.02386
G1 X-22.944 Y-95.869 E4.78374
G1 X-23.591 Y-95.869 E.02386
G1 X68.761 Y-3.517 E4.81748
G1 X68.761 Y-2.87 E.02386
G1 X-24.237 Y-95.869 E4.85122
G1 X-24.884 Y-95.869 E.02386
G1 X68.761 Y-2.223 E4.88495
G1 X68.761 Y-1.577 E.02386
G1 X-25.531 Y-95.869 E4.91869
G1 X-26.178 Y-95.869 E.02386
G1 X68.761 Y-.93 E4.95243
G1 X68.761 Y-.283 E.02386
G1 X-26.824 Y-95.869 E4.98617
G1 X-27.471 Y-95.869 E.02386
G1 X68.761 Y.364 E5.0199
G1 X68.761 Y1.01 E.02386
G1 X-28.118 Y-95.869 E5.05364
G1 X-28.765 Y-95.869 E.02386
G1 X68.761 Y1.657 E5.08738
G1 X68.761 Y2.304 E.02386
G1 X-29.411 Y-95.869 E5.12112
G1 X-30.058 Y-95.869 E.02386
G1 X68.761 Y2.951 E5.15485
G1 X68.761 Y3.597 E.02386
G1 X-30.705 Y-95.869 E5.18859
G1 X-31.352 Y-95.869 E.02386
G1 X68.761 Y4.244 E5.22233
G1 X68.761 Y4.891 E.02386
G1 X-31.998 Y-95.869 E5.25607
G1 X-32.645 Y-95.869 E.02386
G1 X68.761 Y5.538 E5.2898
G1 X68.761 Y6.184 E.02386
G1 X-33.292 Y-95.869 E5.32354
G1 X-33.939 Y-95.869 E.02386
G1 X68.761 Y6.831 E5.35728
G1 X68.761 Y7.478 E.02386
G1 X-34.585 Y-95.869 E5.39102
G1 X-35.232 Y-95.869 E.02386
G1 X68.761 Y8.125 E5.42475
G1 X68.761 Y8.771 E.02386
G1 X-35.879 Y-95.869 E5.45849
G1 X-36.526 Y-95.869 E.02386
G1 X68.761 Y9.418 E5.49223
G1 X68.761 Y10.065 E.02386
G1 X-37.172 Y-95.869 E5.52597
G1 X-37.819 Y-95.869 E.02386
G1 X68.761 Y10.712 E5.5597
G1 X68.761 Y11.358 E.02386
G1 X-38.466 Y-95.869 E5.59344
G1 X-39.113 Y-95.869 E.02386
G1 X68.761 Y12.005 E5.62718
G1 X68.761 Y12.652 E.02386
G1 X-39.759 Y-95.869 E5.66092
G1 X-40.406 Y-95.869 E.02386
G1 X68.761 Y13.299 E5.69465
M73 P2 R163
G1 X68.761 Y13.945 E.02386
G1 X-41.053 Y-95.869 E5.72839
G1 X-41.7 Y-95.869 E.02386
G1 X68.761 Y14.592 E5.76213
G1 X68.761 Y15.239 E.02386
G1 X-42.346 Y-95.869 E5.79586
G1 X-42.993 Y-95.869 E.02386
G1 X68.761 Y15.886 E5.8296
G1 X68.761 Y16.532 E.02386
G1 X-43.64 Y-95.869 E5.86334
G1 X-44.287 Y-95.869 E.02386
G1 X68.761 Y17.179 E5.89708
G1 X68.761 Y17.826 E.02386
G1 X-44.933 Y-95.869 E5.93081
G1 X-45.58 Y-95.869 E.02386
G1 X68.761 Y18.473 E5.96455
G1 X68.761 Y19.119 E.02386
G1 X-46.227 Y-95.869 E5.99829
G1 X-46.874 Y-95.869 E.02386
G1 X68.761 Y19.766 E6.03203
G1 X68.761 Y20.413 E.02386
G1 X-47.52 Y-95.869 E6.06576
G1 X-48.167 Y-95.869 E.02386
G1 X68.761 Y21.06 E6.0995
G1 X68.761 Y21.706 E.02386
G1 X-48.814 Y-95.869 E6.13324
G1 X-49.461 Y-95.869 E.02386
G1 X68.761 Y22.353 E6.16698
G1 X68.761 Y23 E.02386
G1 X-50.107 Y-95.869 E6.20071
G1 X-50.754 Y-95.869 E.02386
G1 X68.761 Y23.647 E6.23445
G1 X68.761 Y24.293 E.02386
G1 X-51.401 Y-95.869 E6.26819
M73 P3 R163
G1 X-52.048 Y-95.869 E.02386
G1 X68.761 Y24.94 E6.30193
G1 X68.761 Y25.587 E.02386
G1 X-52.694 Y-95.869 E6.33566
G1 X-53.341 Y-95.869 E.02386
G1 X68.761 Y26.234 E6.3694
G1 X68.761 Y26.88 E.02386
G1 X-53.988 Y-95.869 E6.40314
G1 X-54.635 Y-95.869 E.02386
G1 X68.761 Y27.527 E6.43688
G1 X68.761 Y28.174 E.02386
G1 X-55.281 Y-95.869 E6.47061
G1 X-55.928 Y-95.869 E.02386
G1 X68.761 Y28.821 E6.50435
G1 X68.761 Y29.467 E.02386
G1 X-56.575 Y-95.869 E6.53809
G1 X-57.222 Y-95.869 E.02386
G1 X68.761 Y30.114 E6.57183
G1 X68.761 Y30.761 E.02386
M73 P3 R162
G1 X-57.868 Y-95.869 E6.60556
G1 X-58.515 Y-95.869 E.02386
G1 X68.761 Y31.408 E6.6393
G1 X68.761 Y32.054 E.02386
G1 X-59.162 Y-95.869 E6.67304
G1 X-59.809 Y-95.869 E.02386
G1 X68.761 Y32.701 E6.70678
G1 X68.761 Y33.348 E.02386
G1 X-60.455 Y-95.869 E6.74051
G1 X-61.102 Y-95.869 E.02386
G1 X68.761 Y33.995 E6.77425
G1 X68.761 Y34.641 E.02386
G1 X-61.749 Y-95.869 E6.80799
G1 X-62.396 Y-95.869 E.02386
G1 X68.761 Y35.288 E6.84172
G1 X68.761 Y35.935 E.02386
G1 X-63.042 Y-95.869 E6.87546
G1 X-63.689 Y-95.869 E.02386
G1 X68.761 Y36.582 E6.9092
G1 X68.761 Y37.228 E.02386
G1 X-64.336 Y-95.869 E6.94294
G1 X-64.983 Y-95.869 E.02386
G1 X68.761 Y37.875 E6.97667
G1 X68.761 Y38.522 E.02386
G1 X-65.629 Y-95.869 E7.01041
G1 X-66.276 Y-95.869 E.02386
G1 X68.761 Y39.169 E7.04415
G1 X68.761 Y39.815 E.02386
G1 X-66.923 Y-95.869 E7.07789
G1 X-67.57 Y-95.869 E.02386
G1 X68.761 Y40.462 E7.11162
G1 X68.761 Y41.109 E.02386
G1 X-68.216 Y-95.869 E7.14536
G1 X-68.761 Y-95.869 E.0201
G1 X-68.761 Y-95.767 E.00376
G1 X68.761 Y41.756 E7.17379
G1 X68.761 Y42.402 E.02386
G1 X-68.761 Y-95.12 E7.17379
G1 X-68.761 Y-94.474 E.02386
G1 X68.761 Y43.049 E7.17379
G1 X68.761 Y43.696 E.02386
G1 X-68.761 Y-93.827 E7.17379
G1 X-68.761 Y-93.18 E.02386
G1 X68.761 Y44.343 E7.17379
G1 X68.761 Y44.989 E.02386
G1 X-68.761 Y-92.533 E7.17379
G1 X-68.761 Y-91.887 E.02386
G1 X68.761 Y45.636 E7.17379
M73 P3 R161
G1 X68.761 Y46.283 E.02386
G1 X-68.761 Y-91.24 E7.17379
G1 X-68.761 Y-90.593 E.02386
G1 X68.761 Y46.93 E7.17379
G1 X68.761 Y47.576 E.02386
G1 X-68.761 Y-89.946 E7.17379
G1 X-68.761 Y-89.3 E.02386
G1 X68.761 Y48.223 E7.17379
G1 X68.761 Y48.87 E.02386
G1 X-68.761 Y-88.653 E7.17379
G1 X-68.761 Y-88.006 E.02386
G1 X68.761 Y49.517 E7.17379
G1 X68.761 Y50.163 E.02386
G1 X-68.761 Y-87.359 E7.17379
