; HEADER_BLOCK_START
; generated by OrcaSlicer 2.0.0 on 2024-11-19 at 19:19:38
; total layer number: 154
; filament_density: 1.27
; filament_diameter: 1.75
; max_z_height: 30.80
; HEADER_BLOCK_END

; THUMBNAIL_BLOCK_START

;
; THUMBNAIL_BLOCK_END

; external perimeters extrusion width = 0.42mm
; perimeters extrusion width = 0.45mm
; infill extrusion width = 0.45mm
; solid infill extrusion width = 0.42mm
; top infill extrusion width = 0.42mm
; first layer extrusion width = 0.50mm

; EXECUTABLE_BLOCK_START
M73 P0 R160
M106 S0
M106 P2 S0
;TYPE:Custom
M190 S75
M104 S250
G90
M83
G1 Z5 F6000
G1 E-1.5 F800
G1 X110 Y-110 F6000
G1 E2 F800
G1 Y-110 X55 Z0.25 F4800
G1 X-55 E8 F2400
G1 Y-109.6 F2400
G1 X55 E5 F2400
G1 Y-110 X55 Z0.45 F4800
G1 X-55 E8 F2400
M73 P0 R159
G1 Y-109.6 F2400
G1 X55 E5 F2400
G92 E0
G90
G21
M83 ; use relative distances for extrusion
; filament start gcode
SET_PRESSURE_ADVANCE ADVANCE=0.036; Override pressure advance value
M106 S0
M106 P2 S0
;LAYER_CHANGE
;Z:0.2
;HEIGHT:0.2
;BEFORE_LAYER_CHANGE
;0.2
G1 E-.8 F2100
;AFTER_LAYER_CHANGE
;0.2
;_SET_FAN_SPEED_CHANGING_LAYER
SET_VELOCITY_LIMIT ACCEL=500
G1 X72.921 Y0 F30000
G1 Z.4
G1 Z.2
G1 E.8 F2100
;TYPE:Skirt
;WIDTH:0.5
G1 F3000
G1 X72.921 Y88.067 E3.2467
G1 X72.257 Y89.919 E.07252
G1 X64.812 Y98.966 E.43195
G1 X63.58 Y99.845 E.0558
G1 X62.562 Y100.029 E.03813
G1 X-62.562 Y100.029 E4.61283
G1 X-64.024 Y99.636 E.0558
G1 X-64.812 Y98.966 E.03813
G1 X-72.257 Y89.919 E.43195
G1 X-72.921 Y88.067 E.07252
G1 X-72.921 Y-97.115 E6.82694
G1 X-72.528 Y-98.576 E.0558
G1 X-71.455 Y-99.644 E.0558
G1 X-70.007 Y-100.029 E.05523
G1 X70.007 Y-100.029 E5.16177
G1 X71.469 Y-99.636 E.0558
G1 X72.536 Y-98.562 E.0558
G1 X72.921 Y-97.115 E.05523
G1 X72.921 Y-.04 E3.57876
G1 X72.464 Y-.04 F30000
G1 F3000
G1 X72.464 Y88.067 E3.24818
G1 X71.904 Y89.629 E.06115
G1 X64.459 Y98.676 E.43195
G1 X63.311 Y99.455 E.05116
G1 X62.562 Y99.572 E.02794
G1 X-62.562 Y99.572 E4.61283
G1 X-63.893 Y99.18 E.05116
G1 X-64.459 Y98.676 E.02794
G1 X-71.904 Y89.629 E.43195
G1 X-72.464 Y88.067 E.06115
G1 X-72.464 Y-97.115 E6.82694
G1 X-72.072 Y-98.446 E.05116
G1 X-71.022 Y-99.352 E.05116
G1 X-70.007 Y-99.572 E.03827
G1 X70.007 Y-99.572 E5.16177
G1 X71.338 Y-99.18 E.05116
G1 X72.245 Y-98.129 E.05116
G1 X72.464 Y-97.115 E.03827
G1 X72.464 Y-.08 E3.57729
G1 E-.8 F2100
;WIPE_START
G1 F3000
G1 X72.464 Y1.92
;WIPE_END
G1 X65.105 Y3.945 Z.6 F30000
G1 X19.387 Y16.527 Z.6
G1 Z.2
G1 E.8 F2100
;TYPE:Inner wall
G1 F3000
G1 X19.675 Y16.882 E.01685
G1 X5.495 Y28.364 E.67264
G1 X-8.299 Y11.329 E.80808
G1 X4.847 Y.684 E.62358
G1 X5.881 Y-.153 E.04907
G1 X19.362 Y16.495 E.78975
G1 X19.032 Y16.814 F30000
;TYPE:Outer wall
G1 F3000
G1 X5.562 Y27.721 E.63894
G1 X-7.656 Y11.396 E.77437
G1 X5.135 Y1.04 E.60673
G1 X5.814 Y.49 E.03221
G1 X19.007 Y16.783 E.7729
G1 E-.8 F2100
;WIPE_START
G1 F3000
G1 X17.455 Y18.045
;WIPE_END
G1 X24.728 Y20.362 Z.6 F30000
G1 X41.498 Y25.704 Z.6
G1 Z.2
G1 E.8 F2100
;TYPE:Inner wall
G1 F3000
G1 X27.993 Y9.024 E.79123
G1 X41.343 Y-1.785 E.63328
G1 X42.172 Y-2.457 E.03937
G1 X55.966 Y14.578 E.80808
G1 X41.786 Y26.059 E.67264
G1 X41.524 Y25.735 E.01538
G1 X41.854 Y25.416 F30000
;TYPE:Outer wall
G1 F3000
G1 X28.635 Y9.092 E.77437
G1 X41.63 Y-1.43 E.61642
G1 X42.105 Y-1.815 E.02252
G1 X55.323 Y14.51 E.77437
G1 X41.885 Y25.391 E.63747
G1 E-.8 F2100
;WIPE_START
G1 F3000
G1 X40.623 Y23.839
;WIPE_END
G1 X42.761 Y16.512 Z.6 F30000
G1 X55.811 Y-28.218 Z.6
G1 Z.2
G1 E.8 F2100
;TYPE:Inner wall
G1 F3000
G1 X56.099 Y-27.862 E.01685
G1 X41.919 Y-16.381 E.67264
G1 X28.125 Y-33.416 E.80808
G1 X41.475 Y-44.225 E.63328
G1 X42.305 Y-44.897 E.03937
G1 X55.786 Y-28.249 E.78975
G1 X55.456 Y-27.93 F30000
;TYPE:Outer wall
G1 F3000
G1 X41.987 Y-17.023 E.63894
G1 X28.768 Y-33.348 E.77437
G1 X41.763 Y-43.87 E.61643
G1 X42.238 Y-44.254 E.02252
G1 X55.431 Y-27.961 E.7729
G1 E-.8 F2100
;WIPE_START
G1 F3000
G1 X53.879 Y-26.699
;WIPE_END
G1 X46.249 Y-26.524 Z.6 F30000
G1 X19.52 Y-25.913 Z.6
G1 Z.2
G1 E.8 F2100
;TYPE:Inner wall
G1 F3000
G1 X19.808 Y-25.558 E.01685
G1 X5.628 Y-14.076 E.67264
G1 X-8.166 Y-31.111 E.80808
G1 X4.98 Y-41.756 E.62358
G1 X6.014 Y-42.593 E.04907
G1 X19.495 Y-25.945 E.78975
G1 X19.165 Y-25.626 F30000
;TYPE:Outer wall
G1 F3000
G1 X5.695 Y-14.719 E.63894
G1 X-7.523 Y-31.044 E.77437
G1 X5.267 Y-41.4 E.60673
G1 X5.947 Y-41.95 E.03221
G1 X19.14 Y-25.657 E.7729
G1 E-.8 F2100
;WIPE_START
G1 F3000
G1 X17.588 Y-24.395
;WIPE_END
G1 X10.032 Y-25.474 Z.6 F30000
G1 X-45.433 Y-33.398 Z.6
G1 Z.2
G1 E.8 F2100
;TYPE:Inner wall
G1 F3000
G1 X-45.721 Y-33.753 E.01685
G1 X-32.575 Y-44.397 E.62358
G1 X-31.541 Y-45.235 E.04906
G1 X-17.747 Y-28.2 E.80808
G1 X-31.927 Y-16.718 E.67264
G1 X-45.408 Y-33.367 E.78975
G1 X-45.078 Y-33.685 F30000
;TYPE:Outer wall
G1 F3000
G1 X-32.288 Y-44.042 E.60673
G1 X-31.609 Y-44.592 E.03221
G1 X-18.39 Y-28.267 E.77437
G1 X-31.86 Y-17.361 E.63894
G1 X-45.053 Y-33.654 E.7729
G1 E-.8 F2100
;WIPE_START
G1 F3000
G1 X-43.502 Y-34.917
;WIPE_END
G1 X-40.834 Y-27.765 Z.6 F30000
G1 X-31.386 Y-2.439 Z.6
G1 Z.2
G1 E.8 F2100
;TYPE:Inner wall
G1 F3000
G1 X-17.88 Y14.24 E.79123
G1 X-32.06 Y25.722 E.67264
G1 X-45.854 Y8.687 E.80808
G1 X-32.504 Y-2.123 E.63328
G1 X-31.674 Y-2.795 E.03937
G1 X-31.411 Y-2.47 E.01538
G1 X-31.741 Y-2.152 F30000
;TYPE:Outer wall
G1 F3000
G1 X-18.523 Y14.173 E.77437
G1 X-31.993 Y25.079 E.63894
M73 P0 R158
G1 X-45.211 Y8.755 E.77437
G1 X-32.216 Y-1.767 E.61642
G1 X-31.773 Y-2.127 E.02104
G1 E-.8 F2100
;WIPE_START
G1 F3000
G1 X-30.511 Y-.575
;WIPE_END
G1 X-28.91 Y6.888 Z.6 F30000
G1 X-18.301 Y56.325 Z.6
G1 Z.2
G1 E.8 F2100
;TYPE:Inner wall
G1 F3000
G1 X-18.013 Y56.68 E.01685
G1 X-32.193 Y68.162 E.67264
G1 X-45.987 Y51.127 E.80808
G1 X-32.637 Y40.317 E.63328
G1 X-31.807 Y39.645 E.03937
G1 X-18.326 Y56.294 E.78975
G1 X-18.656 Y56.613 F30000
;TYPE:Outer wall
G1 F3000
G1 X-32.126 Y67.519 E.63894
G1 X-45.344 Y51.195 E.77437
G1 X-32.349 Y40.673 E.61642
G1 X-31.874 Y40.288 E.02252
G1 X-18.681 Y56.582 E.7729
G1 E-.8 F2100
;WIPE_START
G1 F3000
G1 X-20.233 Y57.844
;WIPE_END
G1 X-12.603 Y58.061 Z.6 F30000
G1 X19.254 Y58.967 Z.6
G1 Z.2
G1 E.8 F2100
;TYPE:Inner wall
G1 F3000
G1 X19.542 Y59.322 E.01685
G1 X5.362 Y70.803 E.67264
G1 X-8.432 Y53.769 E.80808
G1 X4.918 Y42.959 E.63327
G1 X5.748 Y42.287 E.03937
G1 X19.229 Y58.935 E.78975
G1 X18.899 Y59.254 F30000
;TYPE:Outer wall
G1 F3000
G1 X5.43 Y70.161 E.63894
G1 X-7.789 Y53.836 E.77437
G1 X5.206 Y43.314 E.61642
G1 X5.681 Y42.93 E.02252
G1 X18.874 Y59.223 E.7729
G1 E-.8 F2100
;WIPE_START
G1 F3000
G1 X17.322 Y60.485
;WIPE_END
G1 X24.917 Y59.726 Z.6 F30000
G1 X55.545 Y56.662 Z.6
G1 Z.2
G1 E.8 F2100
;TYPE:Inner wall
G1 F3000
G1 X55.833 Y57.018 E.01685
G1 X41.653 Y68.499 E.67264
G1 X27.86 Y51.464 E.80808
G1 X41.005 Y40.82 E.62358
G1 X42.04 Y39.983 E.04906
G1 X55.52 Y56.631 E.78975
G1 X55.19 Y56.95 F30000
;TYPE:Outer wall
G1 F3000
G1 X41.721 Y67.856 E.63894
G1 X28.503 Y51.532 E.77437
G1 X41.293 Y41.175 E.60673
G1 X41.972 Y40.626 E.03221
G1 X55.165 Y56.919 E.7729
G1 E-.8 F2100
;WIPE_START
G1 F3000
G1 X53.614 Y58.181
;WIPE_END
G1 X52.217 Y50.677 Z.6 F30000
G1 X28.614 Y-76.143 Z.6
G1 Z.2
G1 E.8 F2100
;TYPE:Inner wall
G1 F3000
G1 X41.608 Y-86.665 E.61643
G1 X42.438 Y-87.337 E.03937
G1 X56.232 Y-70.302 E.80808
G1 X42.052 Y-58.821 E.67264
G1 X28.258 Y-75.856 E.80808
G1 X28.582 Y-76.118 E.01538
G1 X28.901 Y-75.788 F30000
;TYPE:Outer wall
G1 F3000
G1 X41.896 Y-86.31 E.61642
G1 X42.371 Y-86.695 E.02252
G1 X55.589 Y-70.37 E.77438
G1 X42.119 Y-59.464 E.63894
G1 X28.926 Y-75.757 E.7729
G1 E-.8 F2100
;WIPE_START
G1 F3000
G1 X30.478 Y-77.019
;WIPE_END
G1 X24.519 Y-72.249 Z.6 F30000
G1 X19.653 Y-68.353 Z.6
G1 Z.2
G1 E.8 F2100
;TYPE:Inner wall
G1 F3000
G1 X19.941 Y-67.998 E.01685
G1 X5.761 Y-56.516 E.67264
G1 X-8.033 Y-73.551 E.80808
G1 X5.113 Y-84.196 E.62358
G1 X6.147 Y-85.033 E.04907
G1 X19.628 Y-68.384 E.78975
G1 X19.298 Y-68.066 F30000
;TYPE:Outer wall
G1 F3000
G1 X5.828 Y-57.159 E.63894
G1 X-7.39 Y-73.484 E.77437
G1 X5.4 Y-83.84 E.60673
G1 X6.079 Y-84.39 E.03221
G1 X19.272 Y-68.097 E.7729
G1 E-.8 F2100
;WIPE_START
G1 F3000
G1 X17.721 Y-66.835
;WIPE_END
G1 X10.125 Y-67.583 Z.6 F30000
G1 X-17.97 Y-70.352 Z.6
G1 Z.2
G1 E.8 F2100
;TYPE:Inner wall
G1 F3000
G1 X-31.794 Y-59.158 E.65579
G1 X-45.588 Y-76.193 E.80808
G1 X-32.238 Y-87.003 E.63328
G1 X-31.408 Y-87.675 E.03937
M73 P1 R158
G1 X-17.615 Y-70.64 E.80808
G1 X-17.939 Y-70.377 E.01538
G1 X-18.257 Y-70.707 F30000
;TYPE:Outer wall
G1 F3000
G1 X-31.727 Y-59.801 E.63894
G1 X-44.945 Y-76.125 E.77437
G1 X-31.95 Y-86.647 E.61643
G1 X-31.476 Y-87.032 E.02252
G1 X-18.283 Y-70.738 E.7729
G1 E-.8 F2100
;WIPE_START
G1 F3000
G1 X-19.834 Y-69.476
;WIPE_END
G1 X-16.311 Y-62.706 Z.6 F30000
G1 X61.705 Y87.21 Z.6
G1 Z.2
G1 E.8 F2100
;TYPE:Inner wall
G1 F3000
G1 X61.705 Y96.257 E.33353
G1 X-61.705 Y96.257 E4.54963
G1 X-61.705 Y87.21 E.33353
G1 X-69.15 Y87.21 E.27447
G1 X-69.15 Y-96.257 E6.76375
G1 X69.15 Y-96.257 E5.09858
G1 X69.15 Y87.21 E6.76375
G1 X61.745 Y87.21 E.273
G1 X62.162 Y87.667 F30000
;TYPE:Outer wall
G1 F3000
G1 X62.162 Y96.715 E.33353
G1 X-62.162 Y96.715 E4.58334
G1 X-62.162 Y87.667 E.33353
G1 X-69.607 Y87.667 E.27447
G1 X-69.607 Y-96.715 E6.79745
G1 X69.607 Y-96.715 E5.13228
G1 X69.607 Y87.667 E6.79745
G1 X62.202 Y87.667 E.273
G1 E-.8 F2100
;WIPE_START
G1 F3000
G1 X62.193 Y89.667
;WIPE_END
G1 X62.433 Y82.039 Z.6 F30000
G1 X68.043 Y-96.075 Z.6
G1 Z.2
G1 E.8 F2100
;TYPE:Bottom surface
;WIDTH:0.500243
G1 F4800
G1 X68.761 Y-95.356 E.0375
G1 X68.761 Y-94.709 E.02386
G1 X67.602 Y-95.869 E.0605
G1 X66.955 Y-95.869 E.02386
G1 X68.761 Y-94.062 E.09424
G1 X68.761 Y-93.416 E.02386
G1 X66.308 Y-95.869 E.12798
M73 P1 R157
G1 X65.661 Y-95.869 E.02386
G1 X68.761 Y-92.769 E.16172
G1 X68.761 Y-92.122 E.02386
G1 X65.015 Y-95.869 E.19545
G1 X64.368 Y-95.869 E.02386
G1 X68.761 Y-91.475 E.22919
G1 X68.761 Y-90.829 E.02386
G1 X63.721 Y-95.869 E.26293
G1 X63.074 Y-95.869 E.02386
G1 X68.761 Y-90.182 E.29667
G1 X68.761 Y-89.535 E.02386
G1 X62.427 Y-95.869 E.3304
G1 X61.781 Y-95.869 E.02386
G1 X68.761 Y-88.888 E.36414
G1 X68.761 Y-88.242 E.02386
G1 X61.134 Y-95.869 E.39788
G1 X60.487 Y-95.869 E.02386
G1 X68.761 Y-87.595 E.43162
G1 X68.761 Y-86.948 E.02386
G1 X59.84 Y-95.869 E.46535
G1 X59.194 Y-95.869 E.02386
G1 X68.761 Y-86.301 E.49909
G1 X68.761 Y-85.655 E.02386
G1 X58.547 Y-95.869 E.53283
G1 X57.9 Y-95.869 E.02386
G1 X68.761 Y-85.008 E.56657
G1 X68.761 Y-84.361 E.02386
G1 X57.253 Y-95.869 E.6003
G1 X56.607 Y-95.869 E.02386
G1 X68.761 Y-83.714 E.63404
G1 X68.761 Y-83.067 E.02386
G1 X55.96 Y-95.869 E.66778
G1 X55.313 Y-95.869 E.02386
G1 X68.761 Y-82.421 E.70151
G1 X68.761 Y-81.774 E.02386
G1 X54.666 Y-95.869 E.73525
G1 X54.02 Y-95.869 E.02386
G1 X68.761 Y-81.127 E.76899
G1 X68.761 Y-80.48 E.02386
G1 X53.373 Y-95.869 E.80273
G1 X52.726 Y-95.869 E.02386
G1 X68.761 Y-79.834 E.83646
G1 X68.761 Y-79.187 E.02386
G1 X52.079 Y-95.869 E.8702
G1 X51.433 Y-95.869 E.02386
G1 X68.761 Y-78.54 E.90394
G1 X68.761 Y-77.893 E.02386
G1 X50.786 Y-95.869 E.93768
G1 X50.139 Y-95.869 E.02386
G1 X68.761 Y-77.247 E.97141
G1 X68.761 Y-76.6 E.02386
G1 X49.492 Y-95.869 E1.00515
G1 X48.846 Y-95.869 E.02386
G1 X68.761 Y-75.953 E1.03889
G1 X68.761 Y-75.306 E.02386
G1 X48.199 Y-95.869 E1.07263
G1 X47.552 Y-95.869 E.02386
G1 X68.761 Y-74.66 E1.10636
G1 X68.761 Y-74.013 E.02386
G1 X46.905 Y-95.869 E1.1401
G1 X46.259 Y-95.869 E.02386
G1 X68.761 Y-73.366 E1.17384
G1 X68.761 Y-72.719 E.02386
G1 X45.612 Y-95.869 E1.20758
G1 X44.965 Y-95.869 E.02386
G1 X68.761 Y-72.073 E1.24131
G1 X68.761 Y-71.426 E.02386
G1 X44.318 Y-95.869 E1.27505
G1 X43.672 Y-95.869 E.02386
G1 X68.761 Y-70.779 E1.30879
G1 X68.761 Y-70.132 E.02386
G1 X43.025 Y-95.869 E1.34253
G1 X42.378 Y-95.869 E.02386
G1 X68.761 Y-69.486 E1.37626
G1 X68.761 Y-68.839 E.02386
G1 X41.731 Y-95.869 E1.41
G1 X41.085 Y-95.869 E.02386
G1 X68.761 Y-68.192 E1.44374
G1 X68.761 Y-67.545 E.02386
G1 X40.438 Y-95.869 E1.47748
G1 X39.791 Y-95.869 E.02386
G1 X68.761 Y-66.899 E1.51121
G1 X68.761 Y-66.252 E.02386
G1 X39.144 Y-95.869 E1.54495
G1 X38.498 Y-95.869 E.02386
G1 X68.761 Y-65.605 E1.57869
G1 X68.761 Y-64.958 E.02386
G1 X37.851 Y-95.869 E1.61243
G1 X37.204 Y-95.869 E.02386
G1 X68.761 Y-64.312 E1.64616
G1 X68.761 Y-63.665 E.02386
G1 X36.557 Y-95.869 E1.6799
G1 X35.911 Y-95.869 E.02386
G1 X68.761 Y-63.018 E1.71364
G1 X68.761 Y-62.371 E.02386
G1 X35.264 Y-95.869 E1.74737
G1 X34.617 Y-95.869 E.02386
G1 X68.761 Y-61.725 E1.78111
G1 X68.761 Y-61.078 E.02386
G1 X44.795 Y-85.045 E1.25022
G1 X42.496 Y-87.884 E.13475
G1 X42.197 Y-87.642 E.01417
G1 X33.97 Y-95.869 E.42914
G1 X33.324 Y-95.869 E.02386
G1 X41.84 Y-87.353 E.44424
G1 X41.482 Y-87.063 E.01696
G1 X32.677 Y-95.869 E.45933
G1 X32.03 Y-95.869 E.02386
G1 X41.125 Y-86.774 E.47443
G1 X40.768 Y-86.485 E.01696
G1 X31.383 Y-95.869 E.48953
G1 X30.737 Y-95.869 E.02386
G1 X40.41 Y-86.195 E.50462
G1 X40.053 Y-85.906 E.01696
G1 X30.09 Y-95.869 E.51972
G1 X29.443 Y-95.869 E.02386
G1 X39.696 Y-85.616 E.53481
G1 X39.338 Y-85.327 E.01696
G1 X28.796 Y-95.869 E.54991
G1 X28.15 Y-95.869 E.02386
G1 X38.981 Y-85.038 E.565
G1 X38.623 Y-84.748 E.01696
G1 X27.503 Y-95.869 E.5801
G1 X26.856 Y-95.869 E.02386
G1 X38.266 Y-84.459 E.59519
G1 X37.909 Y-84.17 E.01696
G1 X26.209 Y-95.869 E.61029
G1 X25.563 Y-95.869 E.02386
G1 X37.551 Y-83.88 E.62538
G1 X37.194 Y-83.591 E.01696
G1 X24.916 Y-95.869 E.64048
G1 X24.269 Y-95.869 E.02386
G1 X36.837 Y-83.301 E.65557
G1 X36.479 Y-83.012 E.01696
G1 X23.622 Y-95.869 E.67067
G1 X22.976 Y-95.869 E.02386
G1 X36.122 Y-82.723 E.68576
G1 X35.764 Y-82.433 E.01696
G1 X22.329 Y-95.869 E.70086
G1 X21.682 Y-95.869 E.02386
G1 X35.407 Y-82.144 E.71595
G1 X35.05 Y-81.855 E.01696
G1 X21.035 Y-95.869 E.73105
G1 X20.389 Y-95.869 E.02386
G1 X34.692 Y-81.565 E.74614
G1 X34.335 Y-81.276 E.01696
G1 X19.742 Y-95.869 E.76124
G1 X19.095 Y-95.869 E.02386
G1 X33.978 Y-80.986 E.77633
G1 X33.62 Y-80.697 E.01696
G1 X18.448 Y-95.869 E.79143
G1 X17.802 Y-95.869 E.02386
G1 X33.263 Y-80.408 E.80652
G1 X32.905 Y-80.118 E.01696
G1 X17.155 Y-95.869 E.82162
G1 X16.508 Y-95.869 E.02386
G1 X32.548 Y-79.829 E.83671
G1 X32.191 Y-79.54 E.01696
G1 X15.861 Y-95.869 E.85181
G1 X15.215 Y-95.869 E.02386
G1 X31.833 Y-79.25 E.8669
G1 X31.476 Y-78.961 E.01696
G1 X14.568 Y-95.869 E.882
G1 X13.921 Y-95.869 E.02386
G1 X31.118 Y-78.671 E.89709
G1 X30.761 Y-78.382 E.01696
G1 X13.274 Y-95.869 E.91219
G1 X12.628 Y-95.869 E.02386
G1 X30.404 Y-78.093 E.92728
G1 X30.046 Y-77.803 E.01696
G1 X11.981 Y-95.869 E.94238
G1 X11.334 Y-95.869 E.02386
G1 X29.689 Y-77.514 E.95747
G1 X29.332 Y-77.225 E.01696
G1 X10.687 Y-95.869 E.97257
G1 X10.041 Y-95.869 E.02386
G1 X28.974 Y-76.935 E.98766
G1 X28.617 Y-76.646 E.01696
G1 X9.394 Y-95.869 E1.00276
G1 X8.747 Y-95.869 E.02386
G1 X28.259 Y-76.356 E1.01785
G1 X27.902 Y-76.067 E.01696
G1 X8.1 Y-95.869 E1.03295
G1 X7.454 Y-95.869 E.02386
G1 X28.999 Y-74.323 E1.12392
G1 X31.751 Y-70.924 E.16132
G1 X6.807 Y-95.869 E1.30122
G1 X6.16 Y-95.869 E.02386
G1 X34.504 Y-67.525 E1.47853
G1 X37.256 Y-64.126 E.16132
G1 X5.308 Y-96.075 E1.66656
G1 E-.8 F2100
;WIPE_START
G1 F4800
G1 X6.722 Y-94.66
;WIPE_END
G1 X14.043 Y-92.502 Z.6 F30000
G1 X46.156 Y-83.037 Z.6
G1 Z.2
G1 E.8 F2100
G1 F4800
G1 X68.761 Y-60.431 E1.17921
G1 X68.761 Y-59.784 E.02386
G1 X50.299 Y-78.247 E.96309
G1 X53.051 Y-74.848 E.16131
G1 X68.761 Y-59.138 E.81953
G1 X68.761 Y-58.491 E.02386
G1 X55.803 Y-71.449 E.67597
G1 X56.778 Y-70.245 E.05717
G1 X56.547 Y-70.058 E.01095
G1 X68.761 Y-57.844 E.63713
G1 X68.761 Y-57.197 E.02386
G1 X56.19 Y-69.769 E.65577
G1 X55.833 Y-69.479 E.01696
G1 X68.761 Y-56.551 E.67441
G1 X68.761 Y-55.904 E.02386
G1 X55.475 Y-69.19 E.69306
G1 X55.118 Y-68.901 E.01696
G1 X68.761 Y-55.257 E.7117
G1 X68.761 Y-54.61 E.02386
G1 X54.761 Y-68.611 E.73034
G1 X54.403 Y-68.322 E.01696
G1 X68.761 Y-53.964 E.74898
G1 X68.761 Y-53.317 E.02386
G1 X54.046 Y-68.032 E.76763
G1 X53.688 Y-67.743 E.01696
G1 X68.761 Y-52.67 E.78627
G1 X68.761 Y-52.023 E.02386
G1 X53.331 Y-67.454 E.80491
G1 X52.974 Y-67.164 E.01696
G1 X68.761 Y-51.377 E.82355
G1 X68.761 Y-50.73 E.02386
G1 X52.616 Y-66.875 E.8422
G1 X52.259 Y-66.586 E.01696
G1 X68.761 Y-50.083 E.86084
