; HEADER_BLOCK_START
; generated by OrcaSlicer 2.0.0 on 2024-11-25 at 00:03:48
; total layer number: 35
; filament_density: 1.27
; filament_diameter: 1.75
; max_z_height: 7.00
; HEADER_BLOCK_END

; THUMBNAIL_BLOCK_START

;
; THUMBNAIL_BLOCK_END

; external perimeters extrusion width = 0.42mm
; perimeters extrusion width = 0.45mm
; infill extrusion width = 0.45mm
; solid infill extrusion width = 0.42mm
; top infill extrusion width = 0.42mm
; first layer extrusion width = 0.50mm

; EXECUTABLE_BLOCK_START
M73 P0 R28
M106 S0
M106 P2 S0
;TYPE:Custom
M190 S70
M104 S255
G90
M83
G1 Z5 F6000
G1 E-1.5 F800
G1 X110 Y-110 F6000
G1 E2 F800
G1 Y-110 X55 Z0.25 F4800
G1 X-55 E8 F2400
G1 Y-109.6 F2400
G1 X55 E5 F2400
G1 Y-110 X55 Z0.45 F4800
G1 X-55 E8 F2400
G1 Y-109.6 F2400
G1 X55 E5 F2400
G92 E0
G90
G21
M83 ; use relative distances for extrusion
; filament start gcode 
;right_extruder_material:PETG
SET_PRESSURE_ADVANCE ADVANCE=0.046; Override pressure advance value
M106 S0
M106 P2 S0
;LAYER_CHANGE
;Z:0.2
;HEIGHT:0.2
;BEFORE_LAYER_CHANGE
;0.2
G1 E-.8 F2100
;AFTER_LAYER_CHANGE
;0.2
;_SET_FAN_SPEED_CHANGING_LAYER
SET_VELOCITY_LIMIT ACCEL=500
G1 X0 Y27.642 F30000
G1 Z.4
G1 Z.2
G1 E.8 F2100
;TYPE:Brim
;WIDTH:0.5
G1 F3000
G1 X-62.554 Y27.642 E2.37743
G1 X-63.202 Y27.594 E.02471
G1 X-63.823 Y27.454 E.02421
G1 X-64.751 Y27.051 E.03843
G1 X-65.286 Y26.701 E.0243
G1 X-65.765 Y26.274 E.02439
G1 X-66.176 Y25.781 E.02439
G1 X-66.509 Y25.236 E.02427
G1 X-66.835 Y24.398 E.03419
G1 X-66.966 Y23.771 E.02435
G1 X-67.004 Y23.192 E.02203
G1 X-67.004 Y-23.192 E1.76289
M73 P1 R28
G1 X-66.956 Y-23.84 E.02471
G1 X-66.816 Y-24.461 E.02421
G1 X-66.413 Y-25.389 E.03843
G1 X-66.063 Y-25.924 E.0243
G1 X-65.636 Y-26.403 E.02439
G1 X-65.143 Y-26.814 E.02439
G1 X-64.598 Y-27.147 E.02427
G1 X-63.76 Y-27.473 E.03419
G1 X-63.133 Y-27.604 E.02435
G1 X-62.554 Y-27.642 E.02203
G1 X62.554 Y-27.642 E4.7549
M73 P1 R27
G1 X63.202 Y-27.594 E.02471
G1 X63.825 Y-27.454 E.02426
G1 X64.668 Y-27.097 E.03481
G1 X65.286 Y-26.7 E.02793
G1 X65.765 Y-26.274 E.02435
G1 X66.176 Y-25.781 E.02439
G1 X66.509 Y-25.236 E.02427
G1 X66.835 Y-24.398 E.03419
G1 X66.966 Y-23.771 E.02435
G1 X67.004 Y-23.192 E.02203
G1 X67.004 Y23.192 E1.76289
G1 X66.956 Y23.84 E.02471
G1 X66.816 Y24.461 E.02421
G1 X66.413 Y25.389 E.03843
G1 X66.063 Y25.924 E.0243
G1 X65.636 Y26.403 E.02439
G1 X65.143 Y26.814 E.02439
G1 X64.598 Y27.147 E.02427
G1 X63.76 Y27.473 E.03419
G1 X63.133 Y27.604 E.02435
G1 X62.554 Y27.642 E.02203
G1 X.04 Y27.642 E2.37594
G1 X.04 Y27.185 F30000
G1 F3000
G1 X-62.532 Y27.185 E2.37812
G1 X-63.124 Y27.142 E.02259
G1 X-63.668 Y27.02 E.02118
G1 X-64.543 Y26.641 E.03623
G1 X-65.015 Y26.33 E.02148
G1 X-65.442 Y25.947 E.02181
G1 X-65.809 Y25.506 E.02181
G1 X-66.102 Y25.022 E.02151
G1 X-66.398 Y24.256 E.03118
G1 X-66.51 Y23.718 E.0209
G1 X-66.547 Y23.173 E.02077
G1 X-66.547 Y-23.17 E1.7613
G1 X-66.504 Y-23.762 E.02259
G1 X-66.382 Y-24.306 E.02118
G1 X-66.003 Y-25.181 E.03623
G1 X-65.692 Y-25.653 E.02148
G1 X-65.309 Y-26.08 E.02181
G1 X-64.868 Y-26.447 E.02181
G1 X-64.384 Y-26.74 E.02151
G1 X-63.618 Y-27.036 E.03118
G1 X-63.08 Y-27.148 E.0209
G1 X-62.535 Y-27.185 E.02077
G1 X62.542 Y-27.185 E4.7537
G1 X63.124 Y-27.142 E.0222
G1 X63.672 Y-27.02 E.02133
G1 X64.443 Y-26.695 E.03179
G1 X65 Y-26.34 E.02511
G1 X65.428 Y-25.962 E.02171
G1 X65.809 Y-25.506 E.02258
G1 X66.102 Y-25.022 E.02151
G1 X66.398 Y-24.256 E.03118
G1 X66.51 Y-23.718 E.0209
G1 X66.547 Y-23.182 E.02043
G1 X66.547 Y23.18 E1.76203
G1 X66.504 Y23.762 E.0222
G1 X66.382 Y24.306 E.02118
G1 X66.003 Y25.181 E.03623
G1 X65.692 Y25.653 E.02148
G1 X65.309 Y26.08 E.02181
G1 X64.868 Y26.447 E.02181
G1 X64.384 Y26.74 E.02151
G1 X63.618 Y27.036 E.03118
G1 X63.08 Y27.148 E.0209
G1 X62.535 Y27.185 E.02077
G1 X.08 Y27.185 E2.37368
G1 X.08 Y26.728 F30000
G1 F3000
G1 X-62.51 Y26.728 E2.37881
G1 X-63.048 Y26.689 E.02049
G1 X-63.513 Y26.587 E.01813
G1 X-64.334 Y26.231 E.03401
G1 X-64.743 Y25.96 E.01862
G1 X-65.119 Y25.621 E.01923
G1 X-65.441 Y25.231 E.01923
G1 X-65.694 Y24.808 E.01875
G1 X-65.96 Y24.115 E.0282
G1 X-66.057 Y23.646 E.01821
G1 X-66.09 Y23.153 E.0188
G1 X-66.09 Y-23.148 E1.75971
G1 X-66.051 Y-23.685 E.02049
G1 X-65.949 Y-24.151 E.01813
G1 X-65.593 Y-24.972 E.03401
G1 X-65.322 Y-25.381 E.01862
G1 X-64.984 Y-25.757 E.01923
G1 X-64.593 Y-26.079 E.01923
G1 X-64.17 Y-26.332 E.01875
G1 X-63.477 Y-26.598 E.0282
G1 X-63.008 Y-26.695 E.01821
G1 X-62.515 Y-26.728 E.0188
G1 X62.52 Y-26.728 E4.7521
M73 P2 R27
G1 X63.047 Y-26.689 E.02011
G1 X63.544 Y-26.578 E.01934
G1 X64.24 Y-26.283 E.02873
G1 X64.715 Y-25.98 E.02142
G1 X65.092 Y-25.649 E.01904
G1 X65.429 Y-25.248 E.01994
G1 X65.694 Y-24.808 E.01951
G1 X65.96 Y-24.115 E.0282
G1 X66.057 Y-23.646 E.01822
G1 X66.09 Y-23.162 E.01846
G1 X66.089 Y23.168 E1.76081
G1 X66.051 Y23.685 E.01972
G1 X65.949 Y24.151 E.01813
G1 X65.593 Y24.972 E.03401
G1 X65.322 Y25.381 E.01862
G1 X64.983 Y25.757 E.01923
G1 X64.593 Y26.079 E.01923
G1 X64.17 Y26.332 E.01875
G1 X63.477 Y26.598 E.0282
G1 X63.008 Y26.695 E.01821
G1 X62.515 Y26.728 E.0188
G1 X.12 Y26.728 E2.37139
G1 X.12 Y26.271 F30000
G1 F3000
G1 X-62.488 Y26.271 E2.37951
G1 X-62.972 Y26.236 E.01843
G1 X-63.359 Y26.153 E.01506
G1 X-64.125 Y25.821 E.03174
G1 X-64.47 Y25.591 E.01573
G1 X-64.794 Y25.297 E.01665
G1 X-65.072 Y24.958 E.01663
G1 X-65.286 Y24.596 E.01599
G1 X-65.522 Y23.976 E.02524
G1 X-65.604 Y23.575 E.01553
G1 X-65.633 Y23.133 E.01685
G1 X-65.633 Y-23.126 E1.75813
G1 X-65.598 Y-23.61 E.01843
G1 X-65.515 Y-23.997 E.01506
G1 X-65.183 Y-24.763 E.03174
G1 X-64.953 Y-25.108 E.01573
G1 X-64.659 Y-25.432 E.01665
G1 X-64.32 Y-25.71 E.01663
G1 X-63.958 Y-25.924 E.01599
G1 X-63.338 Y-26.16 E.02524
G1 X-62.937 Y-26.242 E.01553
G1 X-62.495 Y-26.271 E.01685
G1 X62.498 Y-26.271 E4.75051
G1 X62.97 Y-26.236 E.018
G1 X63.415 Y-26.136 E.01733
G1 X64.036 Y-25.871 E.02567
G1 X64.431 Y-25.619 E.01779
G1 X64.756 Y-25.336 E.01639
G1 X65.049 Y-24.989 E.01725
G1 X65.286 Y-24.595 E.01747
G1 X65.522 Y-23.976 E.0252
G1 X65.604 Y-23.575 E.01554
G1 X65.633 Y-23.141 E.01651
G1 X65.632 Y23.146 E1.75921
G1 X65.598 Y23.609 E.01767
G1 X65.515 Y23.997 E.01507
G1 X65.183 Y24.763 E.03174
G1 X64.953 Y25.108 E.01573
G1 X64.659 Y25.432 E.01665
G1 X64.32 Y25.71 E.01663
G1 X63.958 Y25.924 E.01599
G1 X63.338 Y26.16 E.02524
G1 X62.937 Y26.242 E.01553
G1 X62.495 Y26.271 E.01685
G1 X.16 Y26.271 E2.36911
G1 X.16 Y25.814 F30000
G1 F3000
G1 X-62.467 Y25.814 E2.38021
G1 X-62.897 Y25.783 E.0164
G1 X-63.205 Y25.718 E.01198
G1 X-63.916 Y25.411 E.02943
G1 X-64.195 Y25.223 E.01279
G1 X-64.469 Y24.973 E.01408
G1 X-64.701 Y24.686 E.01403
G1 X-64.877 Y24.386 E.01322
G1 X-65.084 Y23.837 E.0223
G1 X-65.15 Y23.505 E.01287
G1 X-65.176 Y23.113 E.01493
G1 X-65.176 Y-23.105 E1.75656
G1 X-65.145 Y-23.535 E.0164
G1 X-65.08 Y-23.843 E.01198
G1 X-64.773 Y-24.554 E.02943
G1 X-64.585 Y-24.833 E.01279
G1 X-64.335 Y-25.107 E.01408
G1 X-64.048 Y-25.339 E.01403
G1 X-63.748 Y-25.515 E.01322
G1 X-63.199 Y-25.722 E.0223
G1 X-62.867 Y-25.788 E.01287
G1 X-62.475 Y-25.814 E.01493
G1 X62.476 Y-25.814 E4.74894
G1 X62.893 Y-25.784 E.01586
G1 X63.285 Y-25.694 E.01531
G1 X63.832 Y-25.459 E.02262
G1 X64.148 Y-25.258 E.01424
G1 X64.422 Y-25.021 E.01376
G1 X64.682 Y-24.713 E.01534
G1 X64.878 Y-24.383 E.01456
G1 X65.084 Y-23.837 E.02218
G1 X65.15 Y-23.505 E.01288
G1 X65.176 Y-23.121 E.0146
G1 X65.175 Y23.124 E1.75762
M73 P3 R27
G1 X65.145 Y23.535 E.01564
G1 X65.08 Y23.843 E.012
G1 X64.773 Y24.554 E.02943
G1 X64.585 Y24.833 E.01279
G1 X64.335 Y25.107 E.01408
G1 X64.048 Y25.339 E.01403
G1 X63.748 Y25.515 E.01322
G1 X63.199 Y25.722 E.0223
G1 X62.867 Y25.788 E.01287
G1 X62.475 Y25.814 E.01493
G1 X.2 Y25.814 E2.36684
G1 X.2 Y25.357 F30000
G1 F3000
G1 X-62.521 Y25.357 E2.3838
G1 X-62.973 Y25.301 E.01729
G1 X-63.213 Y25.238 E.00945
G1 X-63.786 Y24.947 E.02443
G1 X-63.886 Y24.878 E.0046
G1 X-64.11 Y24.672 E.01156
G1 X-64.284 Y24.466 E.01026
G1 X-64.385 Y24.309 E.00708
G1 X-64.609 Y23.83 E.02011
G1 X-64.677 Y23.555 E.01078
G1 X-64.719 Y23.165 E.01488
G1 X-64.719 Y-23.168 E1.76096
G1 X-64.675 Y-23.552 E.01468
G1 X-64.528 Y-24.034 E.01915
G1 X-64.356 Y-24.352 E.01377
G1 X-64.081 Y-24.693 E.01664
G1 X-63.72 Y-24.992 E.01781
G1 X-63.377 Y-25.177 E.01481
G1 X-63.01 Y-25.296 E.01469
G1 X-62.526 Y-25.357 E.01852
G1 X62.521 Y-25.357 E4.75259
G1 X62.973 Y-25.301 E.01729
G1 X63.213 Y-25.238 E.00945
G1 X63.786 Y-24.947 E.02443
G1 X63.886 Y-24.878 E.0046
G1 X64.11 Y-24.672 E.01156
G1 X64.284 Y-24.466 E.01026
G1 X64.385 Y-24.309 E.00708
G1 X64.609 Y-23.83 E.02011
G1 X64.677 Y-23.555 E.01078
G1 X64.719 Y-23.165 E.01488
G1 X64.719 Y23.159 E1.76063
G1 X64.663 Y23.611 E.01729
G1 X64.6 Y23.851 E.00945
G1 X64.309 Y24.424 E.02443
G1 X64.24 Y24.524 E.0046
G1 X64.034 Y24.748 E.01156
G1 X63.828 Y24.922 E.01026
G1 X63.671 Y25.023 E.00708
G1 X63.192 Y25.247 E.02011
G1 X62.917 Y25.315 E.01078
G1 X62.527 Y25.357 E.01488
G1 X.24 Y25.357 E2.36731
G1 X.24 Y24.9 F30000
G1 F3000
G1 X-62.53 Y24.9 E2.38565
G1 X-62.918 Y24.847 E.01489
G1 X-63.102 Y24.795 E.00727
G1 X-63.576 Y24.541 E.02045
G1 X-63.761 Y24.377 E.00939
G1 X-63.904 Y24.212 E.00829
G1 X-63.972 Y24.112 E.00462
G1 X-64.166 Y23.722 E.01655
G1 X-64.223 Y23.51 E.00835
G1 X-64.262 Y23.173 E.01289
G1 X-64.262 Y-23.176 E1.76153
G1 X-64.221 Y-23.506 E.01266
G1 X-64.091 Y-23.902 E.01581
G1 X-63.958 Y-24.127 E.00995
G1 X-63.723 Y-24.41 E.01398
G1 X-63.431 Y-24.638 E.01407
G1 X-63.164 Y-24.773 E.01139
G1 X-62.87 Y-24.861 E.01165
G1 X-62.535 Y-24.9 E.01282
G1 X62.53 Y-24.9 E4.75324
G1 X62.918 Y-24.847 E.01489
G1 X63.102 Y-24.795 E.00727
G1 X63.576 Y-24.541 E.02045
G1 X63.761 Y-24.377 E.00939
G1 X63.904 Y-24.212 E.00829
G1 X63.972 Y-24.112 E.00462
G1 X64.165 Y-23.722 E.01655
G1 X64.223 Y-23.51 E.00835
G1 X64.262 Y-23.173 E.01289
G1 X64.262 Y23.168 E1.76123
G1 X64.209 Y23.556 E.01489
G1 X64.157 Y23.74 E.00727
G1 X63.903 Y24.214 E.02045
G1 X63.739 Y24.399 E.00939
G1 X63.574 Y24.542 E.00829
G1 X63.474 Y24.61 E.00462
G1 X63.084 Y24.804 E.01655
G1 X62.872 Y24.861 E.00835
G1 X62.535 Y24.9 E.01289
G1 X.28 Y24.9 E2.36607
G1 X.28 Y24.443 F30000
G1 F3000
G1 X-62.539 Y24.443 E2.38752
M73 P4 R27
G1 X-62.856 Y24.394 E.01217
G1 X-62.974 Y24.357 E.0047
G1 X-63.277 Y24.196 E.01307
G1 X-63.41 Y24.083 E.00662
G1 X-63.565 Y23.906 E.00892
G1 X-63.726 Y23.597 E.01325
G1 X-63.768 Y23.458 E.00551
G1 X-63.805 Y23.181 E.01065
G1 X-63.805 Y-23.184 E1.76216
G1 X-63.786 Y-23.366 E.00693
G1 X-63.692 Y-23.68 E.01247
G1 X-63.614 Y-23.826 E.0063
G1 X-63.366 Y-24.124 E.01475
G1 X-63.159 Y-24.271 E.00963
G1 X-62.962 Y-24.363 E.00827
G1 X-62.82 Y-24.406 E.00562
G1 X-62.543 Y-24.443 E.01065
G1 X62.539 Y-24.443 E4.75389
G1 X62.856 Y-24.394 E.01217
G1 X62.973 Y-24.357 E.0047
G1 X63.277 Y-24.196 E.01307
G1 X63.41 Y-24.083 E.00662
G1 X63.565 Y-23.906 E.00892
G1 X63.726 Y-23.597 E.01325
G1 X63.768 Y-23.458 E.00551
G1 X63.805 Y-23.181 E.01065
G1 X63.805 Y23.177 E1.76188
G1 X63.756 Y23.494 E.01217
G1 X63.719 Y23.612 E.0047
G1 X63.558 Y23.915 E.01307
G1 X63.445 Y24.048 E.00662
G1 X63.268 Y24.203 E.00892
G1 X62.959 Y24.364 E.01325
G1 X62.82 Y24.406 E.00551
G1 X62.543 Y24.443 E.01065
G1 X.32 Y24.443 E2.36485
G1 X.32 Y23.986 F30000
G1 F3000
G1 X-62.55 Y23.986 E2.38944
G1 X-62.78 Y23.943 E.00889
G1 X-62.971 Y23.856 E.00799
G1 X-63.123 Y23.727 E.00758
G1 X-63.214 Y23.614 E.00552
G1 X-63.316 Y23.397 E.0091
G1 X-63.348 Y23.189 E.00797
G1 X-63.348 Y-23.191 E1.76276
G1 X-63.332 Y-23.318 E.00484
G1 X-63.256 Y-23.543 E.00902
G1 X-63.089 Y-23.761 E.01044
G1 X-62.976 Y-23.852 E.00552
G1 X-62.759 Y-23.954 E.0091
G1 X-62.551 Y-23.986 E.00797
G1 X62.55 Y-23.986 E4.75463
M73 P4 R26
G1 X62.78 Y-23.943 E.00889
G1 X62.971 Y-23.856 E.00799
G1 X63.123 Y-23.727 E.00758
G1 X63.214 Y-23.614 E.00552
G1 X63.316 Y-23.397 E.0091
G1 X63.348 Y-23.189 E.00797
G1 X63.348 Y23.188 E1.76262
G1 X63.305 Y23.418 E.00889
G1 X63.218 Y23.609 E.00799
G1 X63.089 Y23.761 E.00758
G1 X62.976 Y23.852 E.00552
G1 X62.759 Y23.954 E.0091
G1 X62.551 Y23.986 E.00797
G1 X.36 Y23.986 E2.36367
G1 X.36 Y23.529 F30000
G1 F3000
G1 X-62.562 Y23.529 E2.39143
G1 X-62.673 Y23.5 E.00434
G1 X-62.757 Y23.453 E.00368
G1 X-62.866 Y23.316 E.00665
G1 X-62.891 Y23.2 E.00451
G1 X-62.891 Y-23.2 E1.76349
M73 P5 R26
G1 X-62.862 Y-23.311 E.00434
G1 X-62.815 Y-23.395 E.00368
G1 X-62.678 Y-23.504 E.00665
G1 X-62.562 Y-23.529 E.00451
G1 X62.562 Y-23.529 E4.7555
G1 X62.673 Y-23.5 E.00434
G1 X62.757 Y-23.453 E.00368
G1 X62.866 Y-23.316 E.00665
G1 X62.891 Y-23.2 E.00451
G1 X62.891 Y23.2 E1.76349
G1 X62.862 Y23.311 E.00434
G1 X62.815 Y23.395 E.00368
G1 X62.678 Y23.504 E.00665
G1 X62.562 Y23.529 E.00451
G1 X.4 Y23.529 E2.36255
G1 E-.8 F2100
;WIPE_START
G1 F3000
G1 X-1.6 Y23.529
;WIPE_END
G1 X6.032 Y23.441 Z.6 F30000
G1 X62.162 Y22.8 Z.6
G1 Z.2
G1 E.8 F2100
;TYPE:Outer wall
G1 F3000
G1 X-62.162 Y22.8 E4.7251
G1 X-62.162 Y-22.8 E1.73309
G1 X62.162 Y-22.8 E4.7251
G1 X62.162 Y22.76 E1.73157
G1 X61.705 Y22.343 F30000
;TYPE:Inner wall
G1 F3000
G1 X-61.705 Y22.343 E4.69035
G1 X-61.705 Y-22.343 E1.69834
G1 X61.705 Y-22.343 E4.69035
M73 P6 R26
G1 X61.705 Y22.303 E1.69682
G1 E-.8 F2100
;WIPE_START
G1 F3000
G1 X59.705 Y22.304
;WIPE_END
G1 X60.023 Y14.678 Z.6 F30000
G1 X61.522 Y-21.236 Z.6
G1 Z.2
G1 E.8 F2100
;TYPE:Bottom surface
;WIDTH:0.500098
G1 F4800
G1 X60.804 Y-21.954 E.03863
G1 X60.157 Y-21.954 E.02458
G1 X61.316 Y-20.795 E.06233
G1 X61.316 Y-20.148 E.02458
G1 X59.51 Y-21.954 E.09709
G1 X58.864 Y-21.954 E.02458
G1 X61.316 Y-19.502 E.13185
G1 X61.316 Y-18.855 E.02458
G1 X58.217 Y-21.954 E.1666
G1 X57.571 Y-21.954 E.02458
G1 X61.316 Y-18.209 E.20136
G1 X61.316 Y-17.562 E.02458
G1 X56.924 Y-21.954 E.23612
G1 X56.278 Y-21.954 E.02458
G1 X61.316 Y-16.916 E.27088
G1 X61.316 Y-16.269 E.02458
G1 X55.631 Y-21.954 E.30564
G1 X54.985 Y-21.954 E.02458
G1 X61.316 Y-15.623 E.3404
G1 X61.316 Y-14.976 E.02458
G1 X54.338 Y-21.954 E.37516
G1 X53.692 Y-21.954 E.02458
G1 X61.316 Y-14.33 E.40992
G1 X61.316 Y-13.683 E.02458
G1 X53.045 Y-21.954 E.44467
G1 X52.398 Y-21.954 E.02458
G1 X61.316 Y-13.036 E.47943
G1 X61.316 Y-12.39 E.02458
G1 X51.752 Y-21.954 E.51419
G1 X51.105 Y-21.954 E.02458
G1 X61.316 Y-11.743 E.54895
G1 X61.316 Y-11.097 E.02458
G1 X50.459 Y-21.954 E.58371
G1 X49.812 Y-21.954 E.02458
G1 X61.316 Y-10.45 E.61847
G1 X61.316 Y-9.804 E.02458
G1 X49.166 Y-21.954 E.65323
G1 X48.519 Y-21.954 E.02458
G1 X61.316 Y-9.157 E.68799
G1 X61.316 Y-8.511 E.02458
G1 X47.873 Y-21.954 E.72274
G1 X47.226 Y-21.954 E.02458
G1 X61.316 Y-7.864 E.7575
G1 X61.316 Y-7.218 E.02458
G1 X46.58 Y-21.954 E.79226
G1 X45.933 Y-21.954 E.02458
G1 X61.316 Y-6.571 E.82702
G1 X61.316 Y-5.924 E.02458
G1 X45.286 Y-21.954 E.86178
G1 X44.64 Y-21.954 E.02458
G1 X61.316 Y-5.278 E.89654
G1 X61.316 Y-4.631 E.02458
G1 X43.993 Y-21.954 E.9313
G1 X43.347 Y-21.954 E.02458
G1 X61.316 Y-3.985 E.96606
G1 X61.316 Y-3.338 E.02458
G1 X42.7 Y-21.954 E1.00082
G1 X42.054 Y-21.954 E.02458
G1 X61.316 Y-2.692 E1.03557
G1 X61.316 Y-2.045 E.02458
G1 X41.407 Y-21.954 E1.07033
G1 X40.761 Y-21.954 E.02458
G1 X61.316 Y-1.399 E1.10509
G1 X61.316 Y-.752 E.02458
G1 X40.114 Y-21.954 E1.13985
G1 X39.468 Y-21.954 E.02458
G1 X61.316 Y-.106 E1.17461
G1 X61.316 Y.541 E.02458
G1 X38.821 Y-21.954 E1.20937
G1 X38.174 Y-21.954 E.02458
G1 X61.316 Y1.188 E1.24413
M73 P7 R26
G1 X61.316 Y1.834 E.02458
G1 X37.528 Y-21.954 E1.27889
G1 X36.881 Y-21.954 E.02458
G1 X61.316 Y2.481 E1.31364
G1 X61.316 Y3.127 E.02458
G1 X36.235 Y-21.954 E1.3484
G1 X35.588 Y-21.954 E.02458
G1 X61.316 Y3.774 E1.38316
G1 X61.316 Y4.42 E.02458
G1 X34.942 Y-21.954 E1.41792
G1 X34.295 Y-21.954 E.02458
G1 X61.316 Y5.067 E1.45268
G1 X61.316 Y5.713 E.02458
G1 X33.649 Y-21.954 E1.48744
G1 X33.002 Y-21.954 E.02458
G1 X61.316 Y6.36 E1.5222
G1 X61.316 Y7.006 E.02458
G1 X32.355 Y-21.954 E1.55696
G1 X31.709 Y-21.954 E.02458
G1 X61.316 Y7.653 E1.59171
G1 X61.316 Y8.3 E.02458
G1 X31.062 Y-21.954 E1.62647
G1 X30.416 Y-21.954 E.02458
G1 X61.316 Y8.946 E1.66123
G1 X61.316 Y9.593 E.02458
G1 X29.769 Y-21.954 E1.69599
G1 X29.123 Y-21.954 E.02458
G1 X61.316 Y10.239 E1.73075
G1 X61.316 Y10.886 E.02458
G1 X28.476 Y-21.954 E1.76551
G1 X27.83 Y-21.954 E.02458
G1 X61.316 Y11.532 E1.80027
