; HEADER_BLOCK_START
; generated by OrcaSlicer 2.0.0 on 2024-11-19 at 23:26:56
; total layer number: 44
; filament_density: 1.27
; filament_diameter: 1.75
; max_z_height: 9.00
; HEADER_BLOCK_END

; THUMBNAIL_BLOCK_START

;
; THUMBNAIL_BLOCK_END

; external perimeters extrusion width = 0.42mm
; perimeters extrusion width = 0.45mm
; infill extrusion width = 0.45mm
; solid infill extrusion width = 0.42mm
; top infill extrusion width = 0.42mm
; first layer extrusion width = 0.50mm

; EXECUTABLE_BLOCK_START
M73 P0 R17
M106 S0
M106 P2 S0
;TYPE:Custom
M190 S75
M104 S250
G90
M83
G1 Z5 F6000
G1 E-1.5 F800
G1 X110 Y-110 F6000
G1 E2 F800
G1 Y-110 X55 Z0.25 F4800
G1 X-55 E8 F2400
G1 Y-109.6 F2400
G1 X55 E5 F2400
G1 Y-110 X55 Z0.45 F4800
G1 X-55 E8 F2400
M73 P1 R17
G1 Y-109.6 F2400
G1 X55 E5 F2400
G92 E0
G90
G21
M83 ; use relative distances for extrusion
; filament start gcode
SET_PRESSURE_ADVANCE ADVANCE=0.036; Override pressure advance value
M106 S0
M106 P2 S0
;LAYER_CHANGE
;Z:0.2
;HEIGHT:0.2
;BEFORE_LAYER_CHANGE
;0.2
G1 E-.8 F2100
;AFTER_LAYER_CHANGE
;0.2
;_SET_FAN_SPEED_CHANGING_LAYER
SET_VELOCITY_LIMIT ACCEL=500
G1 X-21.437 Y-.073 F30000
G1 Z.4
G1 Z.2
G1 E.8 F2100
;TYPE:Skirt
;WIDTH:0.5
G1 F3000
G1 X-21.148 Y-85.424 E3.14659
G1 X-20.75 Y-86.884 E.0558
G1 X-19.673 Y-87.948 E.0558
G1 X-18.234 Y-88.328 E.05487
G1 X18.555 Y-88.328 E1.35624
G1 X20.016 Y-87.935 E.0558
G1 X21.084 Y-86.862 E.0558
G1 X21.469 Y-85.414 E.05523
G1 X21.469 Y85.414 E6.29777
M73 P2 R17
G1 X21.076 Y86.876 E.0558
G1 X20.002 Y87.943 E.0558
G1 X18.555 Y88.328 E.05523
G1 X-18.555 Y88.328 E1.36807
G1 X-20.016 Y87.935 E.0558
G1 X-21.084 Y86.862 E.0558
G1 X-21.469 Y85.414 E.05523
G1 X-21.469 Y9.321 E2.80524
G1 X-21.437 Y-.033 E.34485
G1 X-20.98 Y-.031 F30000
G1 F3000
G1 X-20.691 Y-85.422 E3.14807
G1 X-20.294 Y-86.752 E.05116
G1 X-19.241 Y-87.655 E.05116
G1 X-18.234 Y-87.871 E.03797
G1 X18.555 Y-87.871 E1.35624
G1 X19.886 Y-87.479 E.05116
G1 X20.792 Y-86.429 E.05116
G1 X21.012 Y-85.414 E.03827
G1 X21.012 Y85.414 E6.29777
G1 X20.62 Y86.745 E.05116
G1 X19.569 Y87.652 E.05116
G1 X18.555 Y87.871 E.03827
G1 X-18.555 Y87.871 E1.36807
G1 X-19.886 Y87.479 E.05116
G1 X-20.792 Y86.429 E.05116
G1 X-21.012 Y85.414 E.03827
G1 X-21.012 Y9.323 E2.80518
M73 P3 R16
G1 X-20.98 Y.009 E.34338
G1 E-.8 F2100
;WIPE_START
G1 F3000
G1 X-20.973 Y-1.991
;WIPE_END
G1 X-17.86 Y4.977 Z.6 F30000
G1 X17.698 Y84.557 Z.6
G1 Z.2
G1 E.8 F2100
;TYPE:Inner wall
G1 F3000
G1 X-17.698 Y84.557 E1.30488
G1 X-17.698 Y10.188 E2.74168
G1 X-17.377 Y10.188 E.01183
G1 X-17.377 Y-84.557 E3.4929
G1 X17.698 Y-84.557 E1.29305
G1 X17.698 Y84.517 E6.2331
M73 P4 R16
G1 X18.155 Y85.014 F30000
;TYPE:Outer wall
G1 F3000
G1 X-18.155 Y85.014 E1.33858
G1 X-18.155 Y9.731 E2.77538
G1 X-17.834 Y9.731 E.01183
G1 X-17.834 Y-85.014 E3.4929
G1 X18.155 Y-85.014 E1.32675
G1 X18.155 Y84.974 E6.26681
G1 E-.8 F2100
;WIPE_START
G1 F3000
G1 X16.155 Y84.976
;WIPE_END
G1 X16.216 Y77.344 Z.6 F30000
G1 X17.515 Y-83.449 Z.6
M73 P5 R16
G1 Z.2
G1 E.8 F2100
;TYPE:Bottom surface
;WIDTH:0.500562
G1 F4800
G1 X16.795 Y-84.168 E.03756
G1 X16.148 Y-84.168 E.02389
G1 X17.309 Y-83.007 E.06061
G1 X17.309 Y-82.36 E.02389
G1 X15.501 Y-84.168 E.09439
G1 X14.854 Y-84.168 E.02389
G1 X17.309 Y-81.713 E.12817
G1 X17.309 Y-81.066 E.02389
G1 X14.206 Y-84.168 E.16196
G1 X13.559 Y-84.168 E.02389
G1 X17.309 Y-80.419 E.19574
G1 X17.309 Y-79.771 E.02389
G1 X12.912 Y-84.168 E.22953
G1 X12.265 Y-84.168 E.02389
G1 X17.309 Y-79.124 E.26331
G1 X17.309 Y-78.477 E.02389
G1 X11.618 Y-84.168 E.2971
G1 X10.97 Y-84.168 E.02389
G1 X17.309 Y-77.83 E.33088
G1 X17.309 Y-77.183 E.02389
G1 X10.323 Y-84.168 E.36467
G1 X9.676 Y-84.168 E.02389
G1 X17.309 Y-76.535 E.39845
G1 X17.309 Y-75.888 E.02389
G1 X9.029 Y-84.168 E.43223
G1 X8.382 Y-84.168 E.02389
G1 X17.309 Y-75.241 E.46602
G1 X17.309 Y-74.594 E.02389
G1 X7.734 Y-84.168 E.4998
G1 X7.087 Y-84.168 E.02389
G1 X17.309 Y-73.947 E.53359
G1 X17.309 Y-73.299 E.02389
G1 X6.44 Y-84.168 E.56737
G1 X5.793 Y-84.168 E.02389
G1 X17.309 Y-72.652 E.60116
G1 X17.309 Y-72.005 E.02389
G1 X5.146 Y-84.168 E.63494
G1 X4.498 Y-84.168 E.02389
G1 X17.309 Y-71.358 E.66873
G1 X17.309 Y-70.711 E.02389
G1 X3.851 Y-84.168 E.70251
G1 X3.204 Y-84.168 E.02389
G1 X17.309 Y-70.063 E.7363
G1 X17.309 Y-69.416 E.02389
G1 X2.557 Y-84.168 E.77008
G1 X1.91 Y-84.168 E.02389
G1 X17.309 Y-68.769 E.80386
G1 X17.309 Y-68.122 E.02389
G1 X1.262 Y-84.168 E.83765
G1 X.615 Y-84.168 E.02389
G1 X17.309 Y-67.475 E.87143
G1 X17.309 Y-66.827 E.02389
G1 X-.032 Y-84.168 E.90522
G1 X-.679 Y-84.168 E.02389
G1 X17.309 Y-66.18 E.939
G1 X17.309 Y-65.533 E.02389
G1 X-1.326 Y-84.168 E.97279
G1 X-1.974 Y-84.168 E.02389
G1 X17.309 Y-64.886 E1.00657
M73 P6 R16
G1 X17.309 Y-64.239 E.02389
G1 X-2.621 Y-84.168 E1.04036
G1 X-3.268 Y-84.168 E.02389
G1 X17.309 Y-63.591 E1.07414
G1 X17.309 Y-62.944 E.02389
G1 X-3.915 Y-84.168 E1.10792
G1 X-4.562 Y-84.168 E.02389
G1 X17.309 Y-62.297 E1.14171
G1 X17.309 Y-61.65 E.02389
G1 X-5.21 Y-84.168 E1.17549
G1 X-5.857 Y-84.168 E.02389
G1 X17.309 Y-61.003 E1.20928
G1 X17.309 Y-60.355 E.02389
G1 X-6.504 Y-84.168 E1.24306
G1 X-7.151 Y-84.168 E.02389
G1 X17.309 Y-59.708 E1.27685
G1 X17.309 Y-59.061 E.02389
G1 X-7.799 Y-84.168 E1.31063
G1 X-8.446 Y-84.168 E.02389
G1 X17.309 Y-58.414 E1.34442
G1 X17.309 Y-57.767 E.02389
G1 X-9.093 Y-84.168 E1.3782
G1 X-9.74 Y-84.168 E.02389
G1 X17.309 Y-57.119 E1.41198
G1 X17.309 Y-56.472 E.02389
G1 X-10.387 Y-84.168 E1.44577
G1 X-11.035 Y-84.168 E.02389
G1 X17.309 Y-55.825 E1.47955
G1 X17.309 Y-55.178 E.02389
G1 X-11.682 Y-84.168 E1.51334
G1 X-12.329 Y-84.168 E.02389
G1 X17.309 Y-54.531 E1.54712
G1 X17.309 Y-53.883 E.02389
G1 X-12.976 Y-84.168 E1.58091
M73 P7 R16
G1 X-13.623 Y-84.168 E.02389
G1 X17.309 Y-53.236 E1.61469
G1 X17.309 Y-52.589 E.02389
G1 X-14.271 Y-84.168 E1.64848
G1 X-14.918 Y-84.168 E.02389
G1 X17.309 Y-51.942 E1.68226
G1 X17.309 Y-51.294 E.02389
G1 X-15.565 Y-84.168 E1.71605
G1 X-16.212 Y-84.168 E.02389
G1 X17.309 Y-50.647 E1.74983
G1 X17.309 Y-50 E.02389
G1 X-16.859 Y-84.168 E1.78361
G1 X-16.988 Y-84.168 E.00475
G1 X-16.988 Y-83.65 E.01914
G1 X17.309 Y-49.353 E1.79033
G1 X17.309 Y-48.706 E.02389
G1 X-16.988 Y-83.003 E1.79033
G1 X-16.988 Y-82.356 E.02389
G1 X17.309 Y-48.058 E1.79033
G1 X17.309 Y-47.411 E.02389
G1 X-16.988 Y-81.708 E1.79033
G1 X-16.988 Y-81.061 E.02389
G1 X17.309 Y-46.764 E1.79033
G1 X17.309 Y-46.117 E.02389
G1 X-16.988 Y-80.414 E1.79033
G1 X-16.988 Y-79.767 E.02389
G1 X17.309 Y-45.47 E1.79033
G1 X17.309 Y-44.822 E.02389
G1 X-16.988 Y-79.12 E1.79033
M73 P8 R16
G1 X-16.988 Y-78.472 E.02389
G1 X17.309 Y-44.175 E1.79033
G1 X17.309 Y-43.528 E.02389
G1 X-16.988 Y-77.825 E1.79033
G1 X-16.988 Y-77.178 E.02389
G1 X17.309 Y-42.881 E1.79033
G1 X17.309 Y-42.234 E.02389
G1 X-16.988 Y-76.531 E1.79033
G1 X-16.988 Y-75.884 E.02389
G1 X17.309 Y-41.586 E1.79033
G1 X17.309 Y-40.939 E.02389
G1 X-16.988 Y-75.236 E1.79033
G1 X-16.988 Y-74.589 E.02389
G1 X17.309 Y-40.292 E1.79033
G1 X17.309 Y-39.645 E.02389
G1 X-16.988 Y-73.942 E1.79033
G1 X-16.988 Y-73.295 E.02389
G1 X17.309 Y-38.998 E1.79033
G1 X17.309 Y-38.35 E.02389
G1 X-16.988 Y-72.648 E1.79033
G1 X-16.988 Y-72 E.02389
G1 X17.309 Y-37.703 E1.79033
M73 P8 R15
G1 X17.309 Y-37.056 E.02389
G1 X-16.988 Y-71.353 E1.79033
G1 X-16.988 Y-70.706 E.02389
G1 X17.309 Y-36.409 E1.79033
G1 X17.309 Y-35.762 E.02389
G1 X-16.988 Y-70.059 E1.79033
M73 P9 R15
G1 X-16.988 Y-69.411 E.02389
G1 X17.309 Y-35.114 E1.79033
G1 X17.309 Y-34.467 E.02389
G1 X-16.988 Y-68.764 E1.79033
G1 X-16.988 Y-68.117 E.02389
G1 X17.309 Y-33.82 E1.79033
G1 X17.309 Y-33.173 E.02389
G1 X-16.988 Y-67.47 E1.79033
G1 X-16.988 Y-66.823 E.02389
G1 X17.309 Y-32.526 E1.79033
G1 X17.309 Y-31.878 E.02389
G1 X-16.988 Y-66.175 E1.79033
G1 X-16.988 Y-65.528 E.02389
G1 X17.309 Y-31.231 E1.79033
G1 X17.309 Y-30.584 E.02389
G1 X-16.988 Y-64.881 E1.79033
G1 X-16.988 Y-64.234 E.02389
G1 X17.309 Y-29.937 E1.79033
G1 X17.309 Y-29.29 E.02389
G1 X-16.988 Y-63.587 E1.79033
G1 X-16.988 Y-62.939 E.02389
G1 X17.309 Y-28.642 E1.79033
G1 X17.309 Y-27.995 E.02389
G1 X-16.988 Y-62.292 E1.79033
G1 X-16.988 Y-61.645 E.02389
G1 X17.309 Y-27.348 E1.79033
M73 P10 R15
G1 X17.309 Y-26.701 E.02389
G1 X-16.988 Y-60.998 E1.79033
G1 X-16.988 Y-60.351 E.02389
G1 X17.309 Y-26.054 E1.79033
G1 X17.309 Y-25.406 E.02389
G1 X-16.988 Y-59.703 E1.79033
G1 X-16.988 Y-59.056 E.02389
G1 X17.309 Y-24.759 E1.79033
G1 X17.309 Y-24.112 E.02389
G1 X-16.988 Y-58.409 E1.79033
G1 X-16.988 Y-57.762 E.02389
G1 X17.309 Y-23.465 E1.79033
G1 X17.309 Y-22.818 E.02389
G1 X-16.988 Y-57.115 E1.79033
G1 X-16.988 Y-56.467 E.02389
G1 X17.309 Y-22.17 E1.79033
G1 X17.309 Y-21.523 E.02389
G1 X-16.988 Y-55.82 E1.79033
G1 X-16.988 Y-55.173 E.02389
G1 X17.309 Y-20.876 E1.79033
G1 X17.309 Y-20.229 E.02389
G1 X-16.988 Y-54.526 E1.79033
G1 X-16.988 Y-53.879 E.02389
G1 X17.309 Y-19.582 E1.79033
G1 X17.309 Y-18.934 E.02389
G1 X-16.988 Y-53.231 E1.79033
G1 X-16.988 Y-52.584 E.02389
G1 X17.309 Y-18.287 E1.79033
M73 P11 R15
G1 X17.309 Y-17.64 E.02389
G1 X-16.988 Y-51.937 E1.79033
G1 X-16.988 Y-51.29 E.02389
G1 X17.309 Y-16.993 E1.79033
G1 X17.309 Y-16.346 E.02389
G1 X-16.988 Y-50.643 E1.79033
G1 X-16.988 Y-49.995 E.02389
G1 X17.309 Y-15.698 E1.79033
G1 X17.309 Y-15.051 E.02389
G1 X-16.988 Y-49.348 E1.79033
G1 X-16.988 Y-48.701 E.02389
G1 X17.309 Y-14.404 E1.79033
G1 X17.309 Y-13.757 E.02389
G1 X-16.988 Y-48.054 E1.79033
G1 X-16.988 Y-47.407 E.02389
G1 X17.309 Y-13.109 E1.79033
G1 X17.309 Y-12.462 E.02389
G1 X-16.988 Y-46.759 E1.79033
G1 X-16.988 Y-46.112 E.02389
G1 X17.309 Y-11.815 E1.79033
G1 X17.309 Y-11.168 E.02389
G1 X-16.988 Y-45.465 E1.79033
G1 X-16.988 Y-44.818 E.02389
G1 X17.309 Y-10.521 E1.79033
G1 X17.309 Y-9.873 E.02389
G1 X-16.988 Y-44.171 E1.79033
M73 P12 R15
G1 X-16.988 Y-43.523 E.02389
G1 X17.309 Y-9.226 E1.79033
G1 X17.309 Y-8.579 E.02389
G1 X-16.988 Y-42.876 E1.79033
G1 X-16.988 Y-42.229 E.02389
G1 X17.309 Y-7.932 E1.79033
G1 X17.309 Y-7.285 E.02389
G1 X-16.988 Y-41.582 E1.79033
G1 X-16.988 Y-40.935 E.02389
G1 X17.309 Y-6.637 E1.79033
G1 X17.309 Y-5.99 E.02389
G1 X-16.988 Y-40.287 E1.79033
G1 X-16.988 Y-39.64 E.02389
G1 X17.309 Y-5.343 E1.79033
G1 X17.309 Y-4.696 E.02389
G1 X-16.988 Y-38.993 E1.79033
G1 X-16.988 Y-38.346 E.02389
G1 X17.309 Y-4.049 E1.79033
G1 X17.309 Y-3.401 E.02389
G1 X-16.988 Y-37.699 E1.79033
G1 X-16.988 Y-37.051 E.02389
G1 X17.309 Y-2.754 E1.79033
G1 X17.309 Y-2.107 E.02389
G1 X-16.988 Y-36.404 E1.79033
G1 X-16.988 Y-35.757 E.02389
G1 X17.309 Y-1.46 E1.79033
G1 X17.309 Y-.813 E.02389
G1 X-16.988 Y-35.11 E1.79033
M73 P13 R15
G1 X-16.988 Y-34.462 E.02389
G1 X17.309 Y-.165 E1.79033
G1 X17.309 Y.482 E.02389
G1 X-16.988 Y-33.815 E1.79033
G1 X-16.988 Y-33.168 E.02389
G1 X17.309 Y1.129 E1.79033
G1 X17.309 Y1.776 E.02389
G1 X-16.988 Y-32.521 E1.79033
G1 X-16.988 Y-31.874 E.02389
G1 X17.309 Y2.423 E1.79033
G1 X17.309 Y3.071 E.02389
G1 X-16.988 Y-31.226 E1.79033
G1 X-16.988 Y-30.579 E.02389
G1 X17.309 Y3.718 E1.79033
G1 X17.309 Y4.365 E.02389
G1 X-16.988 Y-29.932 E1.79033
G1 X-16.988 Y-29.285 E.02389
G1 X17.309 Y5.012 E1.79033
G1 X17.309 Y5.659 E.02389
G1 X-16.988 Y-28.638 E1.79033
G1 X-16.988 Y-27.99 E.02389
G1 X17.309 Y6.307 E1.79033
G1 X17.309 Y6.954 E.02389
G1 X-16.988 Y-27.343 E1.79033
G1 X-16.988 Y-26.696 E.02389
G1 X17.309 Y7.601 E1.79033
M73 P14 R15
G1 X17.309 Y8.248 E.02389
G1 X-16.988 Y-26.049 E1.79033
G1 X-16.988 Y-25.402 E.02389
G1 X17.309 Y8.895 E1.79033
G1 X17.309 Y9.543 E.02389
G1 X-16.988 Y-24.754 E1.79033
G1 X-16.988 Y-24.107 E.02389
G1 X17.309 Y10.19 E1.79033
G1 X17.309 Y10.837 E.02389
G1 X-16.988 Y-23.46 E1.79033
G1 X-16.988 Y-22.813 E.02389
G1 X17.309 Y11.484 E1.79033
G1 X17.309 Y12.131 E.02389
G1 X-16.988 Y-22.166 E1.79033
M73 P14 R14
G1 X-16.988 Y-21.518 E.02389
G1 X17.309 Y12.779 E1.79033
G1 X17.309 Y13.426 E.02389
G1 X-16.988 Y-20.871 E1.79033
G1 X-16.988 Y-20.224 E.02389
G1 X17.309 Y14.073 E1.79033
G1 X17.309 Y14.72 E.02389
G1 X-16.988 Y-19.577 E1.79033
G1 X-16.988 Y-18.93 E.02389
G1 X17.309 Y15.367 E1.79033
G1 X17.309 Y16.015 E.02389
G1 X-16.988 Y-18.282 E1.79033
G1 X-16.988 Y-17.635 E.02389
G1 X17.309 Y16.662 E1.79033
M73 P15 R14
G1 X17.309 Y17.309 E.02389
G1 X-16.988 Y-16.988 E1.79033
G1 X-16.988 Y-16.341 E.02389
G1 X17.309 Y17.956 E1.79033
G1 X17.309 Y18.603 E.02389
G1 X-16.988 Y-15.694 E1.79033
G1 X-16.988 Y-15.046 E.02389
G1 X17.309 Y19.251 E1.79033
G1 X17.309 Y19.898 E.02389
G1 X-16.988 Y-14.399 E1.79033
G1 X-16.988 Y-13.752 E.02389
G1 X17.309 Y20.545 E1.79033
G1 X17.309 Y21.192 E.02389
G1 X-16.988 Y-13.105 E1.79033
G1 X-16.988 Y-12.458 E.02389
G1 X17.309 Y21.84 E1.79033
G1 X17.309 Y22.487 E.02389
G1 X-16.988 Y-11.81 E1.79033
G1 X-16.988 Y-11.163 E.02389
G1 X17.309 Y23.134 E1.79033
G1 X17.309 Y23.781 E.02389
G1 X-16.988 Y-10.516 E1.79033
G1 X-16.988 Y-9.869 E.02389
G1 X17.309 Y24.428 E1.79033
G1 X17.309 Y25.076 E.02389
G1 X-16.988 Y-9.222 E1.79033
M73 P16 R14
G1 X-16.988 Y-8.574 E.02389
G1 X17.309 Y25.723 E1.79033
G1 X17.309 Y26.37 E.02389
G1 X-16.988 Y-7.927 E1.79033
G1 X-16.988 Y-7.28 E.02389
G1 X17.309 Y27.017 E1.79033
G1 X17.309 Y27.664 E.02389
G1 X-16.988 Y-6.633 E1.79033
G1 X-16.988 Y-5.986 E.02389
G1 X17.309 Y28.312 E1.79033
G1 X17.309 Y28.959 E.02389
G1 X-16.988 Y-5.338 E1.79033
G1 X-16.988 Y-4.691 E.02389
G1 X17.309 Y29.606 E1.79033
G1 X17.309 Y30.253 E.02389
G1 X-16.988 Y-4.044 E1.79033
G1 X-16.988 Y-3.397 E.02389
G1 X17.309 Y30.9 E1.79033
G1 X17.309 Y31.548 E.02389
G1 X-16.988 Y-2.75 E1.79033
G1 X-16.988 Y-2.102 E.02389
G1 X17.309 Y32.195 E1.79033
G1 X17.309 Y32.842 E.02389
G1 X-16.988 Y-1.455 E1.79033
G1 X-16.988 Y-.808 E.02389
G1 X17.309 Y33.489 E1.79033
G1 X17.309 Y34.136 E.02389
G1 X-16.988 Y-.161 E1.79033
M73 P17 R14
G1 X-16.988 Y.486 E.02389
G1 X17.309 Y34.784 E1.79033
G1 X17.309 Y35.431 E.02389
G1 X-16.988 Y1.134 E1.79033
G1 X-16.988 Y1.781 E.02389
G1 X17.309 Y36.078 E1.79033
G1 X17.309 Y36.725 E.02389
G1 X-16.988 Y2.428 E1.79033
G1 X-16.988 Y3.075 E.02389
G1 X17.309 Y37.372 E1.79033
G1 X17.309 Y38.02 E.02389
G1 X-16.988 Y3.723 E1.79033
G1 X-16.988 Y4.37 E.02389
G1 X17.309 Y38.667 E1.79033
G1 X17.309 Y39.314 E.02389
G1 X-16.988 Y5.017 E1.79033
G1 X-16.988 Y5.664 E.02389
G1 X17.309 Y39.961 E1.79033
G1 X17.309 Y40.608 E.02389
G1 X-16.988 Y6.311 E1.79033
G1 X-16.988 Y6.959 E.02389
G1 X17.309 Y41.256 E1.79033
G1 X17.309 Y41.903 E.02389
G1 X-16.988 Y7.606 E1.79033
G1 X-16.988 Y8.253 E.02389
G1 X17.309 Y42.55 E1.79033
M73 P18 R14
G1 X17.309 Y43.197 E.02389
G1 X-16.988 Y8.9 E1.79033
G1 X-16.988 Y9.547 E.02389
G1 X17.309 Y43.844 E1.79033
G1 X17.309 Y44.492 E.02389
G1 X-16.988 Y10.195 E1.79033
G1 X-16.988 Y10.577 E.01411
G1 X-17.253 Y10.577 E.00978
G1 X17.309 Y45.139 E1.80416
G1 X17.309 Y45.786 E.02389
G1 X-17.309 Y11.168 E1.80709
G1 X-17.309 Y11.815 E.02389
G1 X17.309 Y46.433 E1.80709
G1 X17.309 Y47.08 E.02389
G1 X-17.309 Y12.462 E1.80709
G1 X-17.309 Y13.11 E.02389
G1 X17.309 Y47.728 E1.80709
G1 X17.309 Y48.375 E.02389
G1 X-17.309 Y13.757 E1.80709
G1 X-17.309 Y14.404 E.02389
G1 X17.309 Y49.022 E1.80709
G1 X17.309 Y49.669 E.02389
G1 X-17.309 Y15.051 E1.80709
G1 X-17.309 Y15.698 E.02389
G1 X17.309 Y50.316 E1.80709
G1 X17.309 Y50.964 E.02389
G1 X-17.309 Y16.346 E1.80709
G1 X-17.309 Y16.993 E.02389
G1 X17.309 Y51.611 E1.80709
M73 P19 R14
G1 X17.309 Y52.258 E.02389
G1 X-17.309 Y17.64 E1.80709
G1 X-17.309 Y18.287 E.02389
G1 X17.309 Y52.905 E1.80709
G1 X17.309 Y53.552 E.02389
G1 X-17.309 Y18.934 E1.80709
G1 X-17.309 Y19.582 E.02389
G1 X17.309 Y54.2 E1.80709
G1 X17.309 Y54.847 E.02389
G1 X-17.309 Y20.229 E1.80709
G1 X-17.309 Y20.876 E.02389
G1 X17.309 Y55.494 E1.80709
G1 X17.309 Y56.141 E.02389
G1 X-17.309 Y21.523 E1.80709
G1 X-17.309 Y22.17 E.02389
G1 X17.309 Y56.788 E1.80709
G1 X17.309 Y57.436 E.02389
G1 X-17.309 Y22.818 E1.80709
G1 X-17.309 Y23.465 E.02389
G1 X17.309 Y58.083 E1.80709
G1 X17.309 Y58.73 E.02389
G1 X-17.309 Y24.112 E1.80709
G1 X-17.309 Y24.759 E.02389
G1 X17.309 Y59.377 E1.80709
G1 X17.309 Y60.025 E.02389
G1 X-17.309 Y25.406 E1.80709
M73 P20 R14
G1 X-17.309 Y26.054 E.02389
G1 X17.309 Y60.672 E1.80709
G1 X17.309 Y61.319 E.02389
G1 X-17.309 Y26.701 E1.80709
G1 X-17.309 Y27.348 E.02389
