; HEADER_BLOCK_START
; generated by OrcaSlicer 2.0.0 on 2024-11-26 at 15:55:13
; total layer number: 30
; filament_density: 1.27
; filament_diameter: 1.75
; max_z_height: 6.00
; HEADER_BLOCK_END

; THUMBNAIL_BLOCK_START

;
; THUMBNAIL_BLOCK_END

; external perimeters extrusion width = 0.42mm
; perimeters extrusion width = 0.45mm
; infill extrusion width = 0.45mm
; solid infill extrusion width = 0.42mm
; top infill extrusion width = 0.42mm
; first layer extrusion width = 0.50mm

; EXECUTABLE_BLOCK_START
M73 P0 R24
M106 S0
M106 P2 S0
;TYPE:Custom
M190 S70
M104 S255
G90
M83
G1 Z5 F6000
G1 E-1.5 F800
G1 X110 Y-110 F6000
G1 E2 F800
G1 Y-110 X55 Z0.25 F4800
G1 X-55 E8 F2400
G1 Y-109.6 F2400
G1 X55 E5 F2400
G1 Y-110 X55 Z0.45 F4800
G1 X-55 E8 F2400
G1 Y-109.6 F2400
G1 X55 E5 F2400
G92 E0
G90
G21
M83 ; use relative distances for extrusion
; filament start gcode 
;right_extruder_material:PETG
SET_PRESSURE_ADVANCE ADVANCE=0.046; Override pressure advance value
M106 S0
M106 P2 S0
;LAYER_CHANGE
;Z:0.2
;HEIGHT:0.2
;BEFORE_LAYER_CHANGE
;0.2
G1 E-.8 F2100
;AFTER_LAYER_CHANGE
;0.2
;_SET_FAN_SPEED_CHANGING_LAYER
SET_VELOCITY_LIMIT ACCEL=500
G1 X59.493 Y20.577 F30000
M73 P1 R24
G1 Z.4
G1 Z.2
G1 E.8 F2100
;TYPE:Inner wall
;WIDTH:0.5
G1 F3000
G1 X-59.493 Y20.577 E4.52224
M73 P1 R23
G1 X-59.493 Y-20.577 E1.56408
G1 X59.493 Y-20.577 E4.52224
G1 X59.493 Y20.537 E1.56256
G1 X59.95 Y21.034 F30000
;TYPE:Outer wall
G1 F3000
G1 X-59.95 Y21.034 E4.55698
G1 X-59.95 Y-21.034 E1.59883
G1 X59.95 Y-21.034 E4.55698
G1 X59.95 Y20.994 E1.59731
G1 E-.8 F2100
;WIPE_START
G1 F3000
G1 X57.95 Y20.994
;WIPE_END
G1 X58.207 Y13.366 Z.6 F30000
G1 X59.31 Y-19.467 Z.6
M73 P2 R23
G1 Z.2
G1 E.8 F2100
;TYPE:Bottom surface
;WIDTH:0.501388
G1 F4800
G1 X58.589 Y-20.188 E.03888
G1 X57.941 Y-20.188 E.02472
G1 X59.105 Y-19.024 E.06275
G1 X59.105 Y-18.376 E.02472
G1 X57.292 Y-20.188 E.0977
G1 X56.644 Y-20.188 E.02472
G1 X59.105 Y-17.727 E.13266
G1 X59.105 Y-17.079 E.02472
G1 X55.996 Y-20.188 E.16762
G1 X55.347 Y-20.188 E.02472
G1 X59.105 Y-16.431 E.20257
G1 X59.105 Y-15.782 E.02472
G1 X54.699 Y-20.188 E.23753
G1 X54.051 Y-20.188 E.02472
G1 X59.105 Y-15.134 E.27248
G1 X59.105 Y-14.486 E.02472
G1 X53.402 Y-20.188 E.30744
G1 X52.754 Y-20.188 E.02472
G1 X59.105 Y-13.837 E.34239
G1 X59.105 Y-13.189 E.02472
G1 X52.105 Y-20.188 E.37735
G1 X51.457 Y-20.188 E.02472
G1 X59.105 Y-12.54 E.4123
G1 X59.105 Y-11.892 E.02472
G1 X50.809 Y-20.188 E.44726
G1 X50.16 Y-20.188 E.02472
G1 X59.105 Y-11.244 E.48221
G1 X59.105 Y-10.595 E.02472
G1 X49.512 Y-20.188 E.51717
G1 X48.864 Y-20.188 E.02472
G1 X59.105 Y-9.947 E.55212
G1 X59.105 Y-9.299 E.02472
G1 X48.215 Y-20.188 E.58708
G1 X47.567 Y-20.188 E.02472
G1 X59.105 Y-8.65 E.62203
G1 X59.105 Y-8.002 E.02472
G1 X46.918 Y-20.188 E.65699
G1 X46.27 Y-20.188 E.02472
G1 X59.105 Y-7.353 E.69194
G1 X59.105 Y-6.705 E.02472
G1 X45.622 Y-20.188 E.7269
G1 X44.973 Y-20.188 E.02472
G1 X59.105 Y-6.057 E.76185
G1 X59.105 Y-5.408 E.02472
G1 X44.325 Y-20.188 E.79681
G1 X43.677 Y-20.188 E.02472
G1 X59.105 Y-4.76 E.83176
G1 X59.105 Y-4.112 E.02472
G1 X43.028 Y-20.188 E.86672
G1 X42.38 Y-20.188 E.02472
G1 X59.105 Y-3.463 E.90167
G1 X59.105 Y-2.815 E.02472
G1 X41.731 Y-20.188 E.93663
G1 X41.083 Y-20.188 E.02472
G1 X59.105 Y-2.166 E.97159
G1 X59.105 Y-1.518 E.02472
G1 X40.435 Y-20.188 E1.00654
G1 X39.786 Y-20.188 E.02472
G1 X59.105 Y-.87 E1.0415
G1 X59.105 Y-.221 E.02472
G1 X39.138 Y-20.188 E1.07645
G1 X38.49 Y-20.188 E.02472
G1 X59.105 Y.427 E1.11141
G1 X59.105 Y1.075 E.02472
G1 X37.841 Y-20.188 E1.14636
G1 X37.193 Y-20.188 E.02472
G1 X59.105 Y1.724 E1.18132
G1 X59.105 Y2.372 E.02472
G1 X36.545 Y-20.188 E1.21627
G1 X35.896 Y-20.188 E.02472
G1 X59.105 Y3.02 E1.25123
G1 X59.105 Y3.669 E.02472
G1 X35.248 Y-20.188 E1.28618
G1 X34.599 Y-20.188 E.02472
G1 X59.105 Y4.317 E1.32114
M73 P3 R23
G1 X59.105 Y4.966 E.02472
G1 X33.951 Y-20.188 E1.35609
G1 X33.303 Y-20.188 E.02472
G1 X59.105 Y5.614 E1.39105
G1 X59.105 Y6.262 E.02472
G1 X32.654 Y-20.188 E1.426
G1 X32.006 Y-20.188 E.02472
G1 X59.105 Y6.911 E1.46096
G1 X59.105 Y7.559 E.02472
G1 X31.358 Y-20.188 E1.49591
G1 X30.709 Y-20.188 E.02472
G1 X59.105 Y8.207 E1.53087
G1 X59.105 Y8.856 E.02472
G1 X30.061 Y-20.188 E1.56582
G1 X29.412 Y-20.188 E.02472
G1 X59.105 Y9.504 E1.60078
G1 X59.105 Y10.153 E.02472
G1 X28.764 Y-20.188 E1.63573
G1 X28.116 Y-20.188 E.02472
G1 X59.105 Y10.801 E1.67069
G1 X59.105 Y11.449 E.02472
G1 X27.467 Y-20.188 E1.70564
G1 X26.819 Y-20.188 E.02472
G1 X59.105 Y12.098 E1.7406
G1 X59.105 Y12.746 E.02472
G1 X26.171 Y-20.188 E1.77556
G1 X25.522 Y-20.188 E.02472
G1 X59.105 Y13.394 E1.81051
G1 X59.105 Y14.043 E.02472
G1 X24.874 Y-20.188 E1.84547
G1 X24.225 Y-20.188 E.02472
G1 X59.105 Y14.691 E1.88042
G1 X59.105 Y15.34 E.02472
G1 X23.577 Y-20.188 E1.91538
G1 X22.929 Y-20.188 E.02472
G1 X59.105 Y15.988 E1.95033
G1 X59.105 Y16.636 E.02472
G1 X22.28 Y-20.188 E1.98529
G1 X21.632 Y-20.188 E.02472
G1 X59.105 Y17.285 E2.02024
M73 P4 R23
G1 X59.105 Y17.933 E.02472
G1 X20.984 Y-20.188 E2.0552
G1 X20.335 Y-20.188 E.02472
G1 X59.105 Y18.581 E2.09015
G1 X59.105 Y19.23 E.02472
G1 X19.687 Y-20.188 E2.12511
G1 X19.038 Y-20.188 E.02472
G1 X59.105 Y19.878 E2.16006
G1 X59.105 Y20.188 E.01182
G1 X58.766 Y20.188 E.0129
G1 X18.39 Y-20.188 E2.17677
G1 X17.742 Y-20.188 E.02472
G1 X58.118 Y20.188 E2.17677
G1 X57.47 Y20.188 E.02472
G1 X17.093 Y-20.188 E2.17677
G1 X16.445 Y-20.188 E.02472
G1 X56.821 Y20.188 E2.17677
G1 X56.173 Y20.188 E.02472
G1 X15.797 Y-20.188 E2.17677
G1 X15.148 Y-20.188 E.02472
G1 X55.524 Y20.188 E2.17677
G1 X54.876 Y20.188 E.02472
G1 X14.5 Y-20.188 E2.17677
G1 X13.851 Y-20.188 E.02472
G1 X54.228 Y20.188 E2.17677
G1 X53.579 Y20.188 E.02472
G1 X13.203 Y-20.188 E2.17677
G1 X12.555 Y-20.188 E.02472
G1 X52.931 Y20.188 E2.17677
G1 X52.283 Y20.188 E.02472
G1 X11.906 Y-20.188 E2.17677
G1 X11.258 Y-20.188 E.02472
G1 X51.634 Y20.188 E2.17677
G1 X50.986 Y20.188 E.02472
G1 X10.61 Y-20.188 E2.17677
M73 P5 R23
G1 X9.961 Y-20.188 E.02472
G1 X50.337 Y20.188 E2.17677
G1 X49.689 Y20.188 E.02472
G1 X9.313 Y-20.188 E2.17677
G1 X8.665 Y-20.188 E.02472
G1 X49.041 Y20.188 E2.17677
M73 P5 R22
G1 X48.392 Y20.188 E.02472
G1 X8.016 Y-20.188 E2.17677
G1 X7.368 Y-20.188 E.02472
G1 X47.744 Y20.188 E2.17677
G1 X47.096 Y20.188 E.02472
G1 X6.719 Y-20.188 E2.17677
G1 X6.071 Y-20.188 E.02472
G1 X46.447 Y20.188 E2.17677
G1 X45.799 Y20.188 E.02472
G1 X5.423 Y-20.188 E2.17677
G1 X4.774 Y-20.188 E.02472
G1 X45.15 Y20.188 E2.17677
G1 X44.502 Y20.188 E.02472
G1 X4.126 Y-20.188 E2.17677
G1 X3.478 Y-20.188 E.02472
G1 X43.854 Y20.188 E2.17677
G1 X43.205 Y20.188 E.02472
G1 X2.829 Y-20.188 E2.17677
G1 X2.181 Y-20.188 E.02472
G1 X42.557 Y20.188 E2.17677
G1 X41.909 Y20.188 E.02472
G1 X1.532 Y-20.188 E2.17677
G1 X.884 Y-20.188 E.02472
G1 X41.26 Y20.188 E2.17677
G1 X40.612 Y20.188 E.02472
G1 X.236 Y-20.188 E2.17677
M73 P6 R22
G1 X-.413 Y-20.188 E.02472
G1 X39.963 Y20.188 E2.17677
G1 X39.315 Y20.188 E.02472
G1 X-1.061 Y-20.188 E2.17677
G1 X-1.709 Y-20.188 E.02472
G1 X38.667 Y20.188 E2.17677
G1 X38.018 Y20.188 E.02472
G1 X-2.358 Y-20.188 E2.17677
G1 X-3.006 Y-20.188 E.02472
G1 X37.37 Y20.188 E2.17677
G1 X36.722 Y20.188 E.02472
G1 X-3.655 Y-20.188 E2.17677
G1 X-4.303 Y-20.188 E.02472
G1 X36.073 Y20.188 E2.17677
G1 X35.425 Y20.188 E.02472
G1 X-4.951 Y-20.188 E2.17677
G1 X-5.6 Y-20.188 E.02472
G1 X34.776 Y20.188 E2.17677
G1 X34.128 Y20.188 E.02472
G1 X-6.248 Y-20.188 E2.17677
G1 X-6.896 Y-20.188 E.02472
G1 X33.48 Y20.188 E2.17677
G1 X32.831 Y20.188 E.02472
G1 X-7.545 Y-20.188 E2.17677
G1 X-8.193 Y-20.188 E.02472
G1 X32.183 Y20.188 E2.17677
G1 X31.535 Y20.188 E.02472
G1 X-8.842 Y-20.188 E2.17677
G1 X-9.49 Y-20.188 E.02472
G1 X30.886 Y20.188 E2.17677
G1 X30.238 Y20.188 E.02472
G1 X-10.138 Y-20.188 E2.17677
G1 X-10.787 Y-20.188 E.02472
M73 P7 R22
G1 X29.59 Y20.188 E2.17677
G1 X28.941 Y20.188 E.02472
G1 X-11.435 Y-20.188 E2.17677
G1 X-12.083 Y-20.188 E.02472
G1 X28.293 Y20.188 E2.17677
G1 X27.644 Y20.188 E.02472
G1 X-12.732 Y-20.188 E2.17677
G1 X-13.38 Y-20.188 E.02472
G1 X26.996 Y20.188 E2.17677
G1 X26.348 Y20.188 E.02472
G1 X-14.028 Y-20.188 E2.17677
G1 X-14.677 Y-20.188 E.02472
G1 X25.699 Y20.188 E2.17677
G1 X25.051 Y20.188 E.02472
G1 X-15.325 Y-20.188 E2.17677
G1 X-15.974 Y-20.188 E.02472
G1 X24.403 Y20.188 E2.17677
G1 X23.754 Y20.188 E.02472
G1 X-16.622 Y-20.188 E2.17677
G1 X-17.27 Y-20.188 E.02472
G1 X23.106 Y20.188 E2.17677
G1 X22.457 Y20.188 E.02472
G1 X-17.919 Y-20.188 E2.17677
G1 X-18.567 Y-20.188 E.02472
G1 X21.809 Y20.188 E2.17677
G1 X21.161 Y20.188 E.02472
G1 X-19.215 Y-20.188 E2.17677
G1 X-19.864 Y-20.188 E.02472
G1 X20.512 Y20.188 E2.17677
G1 X19.864 Y20.188 E.02472
G1 X-20.512 Y-20.188 E2.17677
G1 X-21.161 Y-20.188 E.02472
G1 X19.216 Y20.188 E2.17677
M73 P8 R22
G1 X18.567 Y20.188 E.02472
G1 X-21.809 Y-20.188 E2.17677
G1 X-22.457 Y-20.188 E.02472
G1 X17.919 Y20.188 E2.17677
G1 X17.27 Y20.188 E.02472
G1 X-23.106 Y-20.188 E2.17677
G1 X-23.754 Y-20.188 E.02472
G1 X16.622 Y20.188 E2.17677
G1 X15.974 Y20.188 E.02472
G1 X-24.402 Y-20.188 E2.17677
G1 X-25.051 Y-20.188 E.02472
G1 X15.325 Y20.188 E2.17677
G1 X14.677 Y20.188 E.02472
G1 X-25.699 Y-20.188 E2.17677
G1 X-26.348 Y-20.188 E.02472
G1 X14.029 Y20.188 E2.17677
G1 X13.38 Y20.188 E.02472
G1 X-26.996 Y-20.188 E2.17677
G1 X-27.644 Y-20.188 E.02472
G1 X12.732 Y20.188 E2.17677
G1 X12.083 Y20.188 E.02472
G1 X-28.293 Y-20.188 E2.17677
G1 X-28.941 Y-20.188 E.02472
G1 X11.435 Y20.188 E2.17677
G1 X10.787 Y20.188 E.02472
G1 X-29.589 Y-20.188 E2.17677
G1 X-30.238 Y-20.188 E.02472
G1 X10.138 Y20.188 E2.17677
G1 X9.49 Y20.188 E.02472
G1 X-30.886 Y-20.188 E2.17677
G1 X-31.535 Y-20.188 E.02472
G1 X8.842 Y20.188 E2.17677
M73 P9 R22
G1 X8.193 Y20.188 E.02472
G1 X-32.183 Y-20.188 E2.17677
G1 X-32.831 Y-20.188 E.02472
G1 X7.545 Y20.188 E2.17677
G1 X6.897 Y20.188 E.02472
G1 X-33.48 Y-20.188 E2.17677
G1 X-34.128 Y-20.188 E.02472
G1 X6.248 Y20.188 E2.17677
G1 X5.6 Y20.188 E.02472
G1 X-34.776 Y-20.188 E2.17677
G1 X-35.425 Y-20.188 E.02472
G1 X4.951 Y20.188 E2.17677
M73 P9 R21
G1 X4.303 Y20.188 E.02472
G1 X-36.073 Y-20.188 E2.17677
G1 X-36.721 Y-20.188 E.02472
G1 X3.655 Y20.188 E2.17677
G1 X3.006 Y20.188 E.02472
G1 X-37.37 Y-20.188 E2.17677
G1 X-38.018 Y-20.188 E.02472
G1 X2.358 Y20.188 E2.17677
G1 X1.71 Y20.188 E.02472
G1 X-38.667 Y-20.188 E2.17677
G1 X-39.315 Y-20.188 E.02472
G1 X1.061 Y20.188 E2.17677
G1 X.413 Y20.188 E.02472
G1 X-39.963 Y-20.188 E2.17677
G1 X-40.612 Y-20.188 E.02472
G1 X-.236 Y20.188 E2.17677
G1 X-.884 Y20.188 E.02472
G1 X-41.26 Y-20.188 E2.17677
G1 X-41.908 Y-20.188 E.02472
G1 X-1.532 Y20.188 E2.17677
G1 X-2.181 Y20.188 E.02472
G1 X-42.557 Y-20.188 E2.17677
M73 P10 R21
G1 X-43.205 Y-20.188 E.02472
G1 X-2.829 Y20.188 E2.17677
G1 X-3.477 Y20.188 E.02472
G1 X-43.854 Y-20.188 E2.17677
G1 X-44.502 Y-20.188 E.02472
G1 X-4.126 Y20.188 E2.17677
G1 X-4.774 Y20.188 E.02472
G1 X-45.15 Y-20.188 E2.17677
G1 X-45.799 Y-20.188 E.02472
G1 X-5.423 Y20.188 E2.17677
G1 X-6.071 Y20.188 E.02472
G1 X-46.447 Y-20.188 E2.17677
G1 X-47.095 Y-20.188 E.02472
G1 X-6.719 Y20.188 E2.17677
G1 X-7.368 Y20.188 E.02472
G1 X-47.744 Y-20.188 E2.17677
G1 X-48.392 Y-20.188 E.02472
G1 X-8.016 Y20.188 E2.17677
G1 X-8.664 Y20.188 E.02472
G1 X-49.041 Y-20.188 E2.17677
G1 X-49.689 Y-20.188 E.02472
G1 X-9.313 Y20.188 E2.17677
G1 X-9.961 Y20.188 E.02472
G1 X-50.337 Y-20.188 E2.17677
G1 X-50.986 Y-20.188 E.02472
G1 X-10.61 Y20.188 E2.17677
G1 X-11.258 Y20.188 E.02472
G1 X-51.634 Y-20.188 E2.17677
G1 X-52.282 Y-20.188 E.02472
G1 X-11.906 Y20.188 E2.17677
G1 X-12.555 Y20.188 E.02472
G1 X-52.931 Y-20.188 E2.17677
M73 P11 R21
G1 X-53.579 Y-20.188 E.02472
G1 X-13.203 Y20.188 E2.17677
G1 X-13.851 Y20.188 E.02472
G1 X-54.228 Y-20.188 E2.17677
G1 X-54.876 Y-20.188 E.02472
G1 X-14.5 Y20.188 E2.17677
G1 X-15.148 Y20.188 E.02472
G1 X-55.524 Y-20.188 E2.17677
G1 X-56.173 Y-20.188 E.02472
G1 X-15.796 Y20.188 E2.17677
G1 X-16.445 Y20.188 E.02472
G1 X-56.821 Y-20.188 E2.17677
G1 X-57.469 Y-20.188 E.02472
G1 X-17.093 Y20.188 E2.17677
G1 X-17.742 Y20.188 E.02472
G1 X-58.118 Y-20.188 E2.17677
G1 X-58.766 Y-20.188 E.02472
G1 X-18.39 Y20.188 E2.17677
G1 X-19.038 Y20.188 E.02472
G1 X-59.105 Y-19.878 E2.16007
G1 X-59.105 Y-19.23 E.02472
G1 X-19.687 Y20.188 E2.12511
G1 X-20.335 Y20.188 E.02472
G1 X-59.105 Y-18.582 E2.09016
G1 X-59.105 Y-17.933 E.02472
G1 X-20.983 Y20.188 E2.0552
G1 X-21.632 Y20.188 E.02472
G1 X-59.105 Y-17.285 E2.02025
G1 X-59.105 Y-16.636 E.02472
G1 X-22.28 Y20.188 E1.98529
G1 X-22.929 Y20.188 E.02472
G1 X-59.105 Y-15.988 E1.95034
G1 X-59.105 Y-15.34 E.02472
G1 X-23.577 Y20.188 E1.91538
M73 P12 R21
G1 X-24.225 Y20.188 E.02472
G1 X-59.105 Y-14.691 E1.88043
G1 X-59.105 Y-14.043 E.02472
G1 X-24.874 Y20.188 E1.84547
G1 X-25.522 Y20.188 E.02472
G1 X-59.105 Y-13.395 E1.81052
G1 X-59.105 Y-12.746 E.02472
G1 X-26.17 Y20.188 E1.77556
G1 X-26.819 Y20.188 E.02472
G1 X-59.105 Y-12.098 E1.74061
G1 X-59.105 Y-11.449 E.02472
G1 X-27.467 Y20.188 E1.70565
G1 X-28.116 Y20.188 E.02472
G1 X-59.105 Y-10.801 E1.6707
G1 X-59.105 Y-10.153 E.02472
G1 X-28.764 Y20.188 E1.63574
G1 X-29.412 Y20.188 E.02472
G1 X-59.105 Y-9.504 E1.60079
G1 X-59.105 Y-8.856 E.02472
G1 X-30.061 Y20.188 E1.56583
G1 X-30.709 Y20.188 E.02472
G1 X-59.105 Y-8.208 E1.53088
G1 X-59.105 Y-7.559 E.02472
G1 X-31.357 Y20.188 E1.49592
G1 X-32.006 Y20.188 E.02472
G1 X-59.105 Y-6.911 E1.46096
G1 X-59.105 Y-6.262 E.02472
G1 X-32.654 Y20.188 E1.42601
G1 X-33.303 Y20.188 E.02472
G1 X-59.105 Y-5.614 E1.39105
G1 X-59.105 Y-4.966 E.02472
G1 X-33.951 Y20.188 E1.3561
G1 X-34.599 Y20.188 E.02472
G1 X-59.105 Y-4.317 E1.32114
G1 X-59.105 Y-3.669 E.02472
G1 X-35.248 Y20.188 E1.28619
G1 X-35.896 Y20.188 E.02472
G1 X-59.105 Y-3.021 E1.25123
G1 X-59.105 Y-2.372 E.02472
G1 X-36.544 Y20.188 E1.21628
G1 X-37.193 Y20.188 E.02472
G1 X-59.105 Y-1.724 E1.18132
G1 X-59.105 Y-1.075 E.02472
M73 P13 R21
G1 X-37.841 Y20.188 E1.14637
G1 X-38.489 Y20.188 E.02472
G1 X-59.105 Y-.427 E1.11141
G1 X-59.105 Y.221 E.02472
G1 X-39.138 Y20.188 E1.07646
G1 X-39.786 Y20.188 E.02472
G1 X-59.105 Y.87 E1.0415
G1 X-59.105 Y1.518 E.02472
G1 X-40.435 Y20.188 E1.00655
G1 X-41.083 Y20.188 E.02472
G1 X-59.105 Y2.166 E.97159
G1 X-59.105 Y2.815 E.02472
G1 X-41.731 Y20.188 E.93664
G1 X-42.38 Y20.188 E.02472
G1 X-59.105 Y3.463 E.90168
G1 X-59.105 Y4.111 E.02472
G1 X-43.028 Y20.188 E.86673
G1 X-43.676 Y20.188 E.02472
G1 X-59.105 Y4.76 E.83177
G1 X-59.105 Y5.408 E.02472
G1 X-44.325 Y20.188 E.79682
G1 X-44.973 Y20.188 E.02472
G1 X-59.105 Y6.057 E.76186
G1 X-59.105 Y6.705 E.02472
G1 X-45.622 Y20.188 E.72691
G1 X-46.27 Y20.188 E.02472
G1 X-59.105 Y7.353 E.69195
G1 X-59.105 Y8.002 E.02472
G1 X-46.918 Y20.188 E.65699
M73 P13 R20
G1 X-47.567 Y20.188 E.02472
G1 X-59.105 Y8.65 E.62204
G1 X-59.105 Y9.298 E.02472
G1 X-48.215 Y20.188 E.58708
G1 X-48.863 Y20.188 E.02472
G1 X-59.105 Y9.947 E.55213
G1 X-59.105 Y10.595 E.02472
G1 X-49.512 Y20.188 E.51717
G1 X-50.16 Y20.188 E.02472
G1 X-59.105 Y11.244 E.48222
G1 X-59.105 Y11.892 E.02472
G1 X-50.809 Y20.188 E.44726
G1 X-51.457 Y20.188 E.02472
G1 X-59.105 Y12.54 E.41231
G1 X-59.105 Y13.189 E.02472
G1 X-52.105 Y20.188 E.37735
G1 X-52.754 Y20.188 E.02472
G1 X-59.105 Y13.837 E.3424
G1 X-59.105 Y14.485 E.02472
G1 X-53.402 Y20.188 E.30744
G1 X-54.05 Y20.188 E.02472
G1 X-59.105 Y15.134 E.27249
G1 X-59.105 Y15.782 E.02472
G1 X-54.699 Y20.188 E.23753
G1 X-55.347 Y20.188 E.02472
G1 X-59.105 Y16.431 E.20258
G1 X-59.105 Y17.079 E.02472
G1 X-55.996 Y20.188 E.16762
G1 X-56.644 Y20.188 E.02472
G1 X-59.105 Y17.727 E.13267
G1 X-59.105 Y18.376 E.02472
G1 X-57.292 Y20.188 E.09771
G1 X-57.941 Y20.188 E.02472
G1 X-59.105 Y19.024 E.06276
G1 X-59.105 Y19.672 E.02472
G1 X-58.383 Y20.394 E.03889
M106 S102
M106 P2 S127
;LAYER_CHANGE
;Z:0.4
;HEIGHT:0.2
;BEFORE_LAYER_CHANGE
;0.4
G1 E-.8 F2100
;WIPE_START
G1 F4800
G1 X-59.105 Y19.672
G1 X-59.105 Y19.024
G1 X-58.87 Y19.258
;WIPE_END
;AFTER_LAYER_CHANGE
;0.4
;_SET_FAN_SPEED_CHANGING_LAYER
SET_VELOCITY_LIMIT ACCEL=10000
M140 S70 ; set bed temperature
G17
G3 Z.6 I-.016 J1.217 P1  F30000
G1 X59.748 Y20.832 Z.6
G1 Z.4
G1 E.8 F2100
SET_VELOCITY_LIMIT ACCEL=5000
;TYPE:Inner wall
;WIDTH:0.45
G1 F8843.478
